!!!!SEGMENT: pl-wtm--r-692-m--001-002_moniuszko-stanislaw--sonety-krymskie-ruiny.krn
!!!cenid: 18xx:2928
!!!COM: Moniuszko, Stanisław
!!!COM-rismID: pe30008351
!!!CDT: 1819/05/05-1872/06/04
!!!CNT: Polish
!!!GTL: Sonety krymskie
!!!OTL: Ruiny
!!!OMV: 002
!!!PDT:
!!!AGN: Secular; Sonnet
!!!YEC: Copyright 2022 Narodowy Instytut Fryderyka Chopina (https://polishscores.org)
!!!YEM: License CC-BY-4.0 (https://creativecommons.org/licenses/by/4.0)
!!!SMS-siglum: PL-Wtm
!!!SMS-shelfmark: R 692/M
!!!SMS-shelfwork: 001-002 G
!!!SMS-variant:
!!!SMS-altvar:
!!!NIFC-rismSourceID: 1001095950
!!!NIFC-rismChildID: 1001095950
!!!NIFC-islandoraID:
!!!URL-pdf-islandora:
!!!URL-scan:
!!!IIIF:
!!!ONB-nifc: UWAGA: zbiór zawiera: 1. Burza, 2. Ruiny, 3. Noc, 4. Hymn Czatyrdah, 5. Ostatni sonet
!!!OMD: Largo
!!!AIN: 1 alto 1 empty 2 piano 1 soprn 1 tenor
!!!key:
**kern	**kern	**dynam	**kern	**text	**dynam	**kern	**text	**dynam	**kern	**dynam	**kern	**text	**dynam
*group2	*group2	*	*group1	*	*	*group1	*	*	*group1	*	*group1	*	*
*part6	*part5	*	*part4	*	*	*part3	*	*	*part2	*	*part1	*	*
*staff6	*staff5	*	*staff4	*	*	*staff3	*	*	*staff2	*	*staff1	*	*
*	*	*	*	*	*	*	*	*	*	*	*I""Coro	*	*
*Ipiano	*Ipiano	*	*Iempty	*	*	*Itenor	*	*	*Ialto	*	*Isoprn	*	*
*I"[Piano]	*I"[Piano]	*	*I"[Basso]	*	*	*I"[Tenore]	*	*	*I"[Alto]	*	*I"[Soprano]	*	*
*clefF4	*clefG2	*	*clefF4	*	*	*clefG2	*	*	*clefG2	*	*clefG2	*	*
*k[b-e-a-d-]	*k[b-e-a-d-]	*	*k[b-e-a-d-]	*	*	*k[b-e-a-d-]	*	*	*k[b-e-a-d-]	*	*k[b-e-a-d-]	*	*
*f:	*f:	*	*f:	*	*	*f:	*	*	*f:	*	*f:	*	*
*M4/4	*M4/4	*	*M4/4	*	*	*M4/4	*	*	*M4/4	*	*M4/4	*	*
*met(c)	*met(c)	*	*met(c)	*	*	*met(c)	*	*	*met(c)	*	*met(c)	*	*
=1	=1	=1	=1	=1	=1	=1	=1	=1	=1	=1	=1	=1	=1
*all\right	*all\right	*	*all\right	*	*	*all\right	*	*	*all\right	*	*all\right	*	*
!LO:TX:t=P:problem=all\right&colon; global	!LO:TX:t=P:problem=all\right&colon; global	!	!LO:TX:t=P:problem=all\right&colon; global	!	!	!LO:TX:t=P:problem=all\right&colon; global	!	!	!LO:TX:t=P:problem=all\right&colon; global	!	!LO:TX:t=P:problem=all\right&colon; global	!	!
!	!	!	!	!	!	!	!	!	!	!	!LO:TX:a:t=Ruina:color=blue	!	!
!	!	!	!	!	!	!	!	!	!	!	!LO:TX:a:t=No V:color=blue	!	!
!LO:TX:t=P:problem=2FF dopisane ołówkiem	!	!	!	!	!	!LO:TX:t=P:problem=partia tenoru zapisana w kluczu wiolinowym	!	!	!	!	!	!	!
2FF	2r	.	1ryy	.	.	1ryy	.	.	1ryy	.	1ryy	.	.
*2\right	*	*	*	*	*	*	*	*	*	*	*	*	*
!LO:TX:t=P:problem=w 2c brak laski	!	!	!	!	!	!	!	!	!	!	!	!	!
2F\ 2c	2f/ 2cc	.	.	.	.	.	.	.	.	.	.	.	.
=2	=2	=2	=2	=2	=2	=2	=2	=2	=2	=2	=2	=2	=2
!LO:TX:t=P:problem=w 2c brak laski	!	!	!	!	!	!	!	!	!LO:TX:t=P:problem=pauza dopisana ołówkiem	!	!	!	!
[>2c [<2F\	[>2cc [<2f/	.	1ryy	.	.	1ryy	.	.	1r	.	2r	.	.
!LO:TX:t=P:problem=w t. 2 8c 8F, ligatury i pauzy dopisane ołówkiem	!LO:TX:t=P:problem=w t. 2 8cc 8ff, ligatury i pauzy dopisane ołówkiem	!	!	!	!	!	!	!	!	!	!LO:TX:t=P:problem=w t. 2 akcent i "p" dopisane ołówkiem	!	!LO:DY:a:rj
8c] 8F]	8cc] 8f]	.	.	.	.	.	.	.	.	.	4.cc^>\	.	p
8r	8r	.	.	.	.	.	.	.	.	.	.	.	.
4r	4r	.	.	.	.	.	.	.	.	.	.	.	.
!	!LO:TX:b:B:t=D=:color=red	!	!	!	!	!	!	!	!	!	!	!	!LO:DY:rj
.	.	.	.	.	.	.	.	.	.	.	8a-/	.	.
=3	=3	=3	=3	=3	=3	=3	=3	=3	=3	=3	=3	=3	=3
!	!	!	!	!	!	!	!	!	!LO:TX:t=P:problem=pauza dopisana ołówkiem	!	!	!	!
(8A-\L 8c	(>8f/L	.	1r	.	.	1r	.	.	1r	.	4f/	.	.
8G\ 8B-	8e-/	.	.	.	.	.	.	.	.	.	.	.	.
8F\ 8A-	8d-/	.	.	.	.	.	.	.	.	.	8.f/	.	.
8E-\J 8G	8c/J	.	.	.	.	.	.	.	.	.	.	.	.
.	.	.	.	.	.	.	.	.	.	.	16f/	.	.
8D-\L 8F	8B-/L	.	.	.	.	.	.	.	.	.	4f/	.	.
8C\ 8E-	8A-/	.	.	.	.	.	.	.	.	.	.	.	.
8BB-\ 8D-	8G/	.	.	.	.	.	.	.	.	.	8.f/	.	.
8AA-\J) 8C	8F/J) 8f	.	.	.	.	.	.	.	.	.	.	.	.
.	.	.	.	.	.	.	.	.	.	.	16f/	.	.
=4	=4	=4	=4	=4	=4	=4	=4	=4	=4	=4	=4	=4	=4
*^	*	*	*	*	*	*	*	*	*	*	*	*	*
!	!	!	!	!	!	!	!	!	!	!LO:TX:t=P:problem=w t. 4 pauzy oraz "p" dopisane ołówkiem	!	!	!	!
4F/	8BB-\L	4d-/ 4g	.	1r	.	.	1r	.	.	2r	.	4g/	.	.
.	8C\J	.	.	.	.	.	.	.	.	.	.	.	.	.
8F/L	8D-\L	8.B-/L 8.f	.	.	.	.	.	.	.	.	.	8.f/	.	.
8F/J	16C\L	.	.	.	.	.	.	.	.	.	.	.	.	.
.	16BB-\JJ	16d-/Jk 16g	.	.	.	.	.	.	.	.	.	16g/	.	.
4F/	8FF\L	4c/ 4f 4a-	.	.	.	.	.	.	.	4r	.	4a-/	.	.
.	8C'>\	.	.	.	.	.	.	.	.	.	.	.	.	.
4ryy	8F'>\	8c/L 8f 8a-	.	.	.	.	.	.	.	8r	.	8a-/	.	.
!	!	!	!	!	!	!	!	!	!	!	!LO:DY:a:rj	!	!	!
.	8E-'>\J	8c/J 8f 8a-	.	.	.	.	.	.	.	8a-/	p	8a-/	.	.
*v	*v	*	*	*	*	*	*	*	*	*	*	*	*	*
=5	=5	=5	=5	=5	=5	=5	=5	=5	=5	=5	=5	=5	=5
*	*^	*	*	*	*	*	*	*	*	*	*	*	*
8D-'</L	(>4B-/ 4f 4a- 4b-	2ryy	.	1r	.	.	1r	.	.	8.a-/	.	8.b-/	.	.
8BB-'</	.	.	.	.	.	.	.	.	.	.	.	.	.	.
.	.	.	.	.	.	.	.	.	.	16a-/	.	16b-/	.	.
8E-'</	8B-/L) 8g 8b-	.	.	.	.	.	.	.	.	8g/	.	8b-/	.	.
8EE-'</J	16e-/L 16f 16a-	.	.	.	.	.	.	.	.	16f/LL	.	16a-/LL	.	.
.	16e-/JJ 16g 16b-	.	.	.	.	.	.	.	.	16g/JJ	.	16b-/JJ	.	.
8AA-/L	(<4e-/ 4b- 4cc	4ryy	.	.	.	.	.	.	.	4a-/	.	4.cc\	.	.
8E-/	.	.	.	.	.	.	.	.	.	.	.	.	.	.
8A-/J	8e-'</) 8a- 8cc	8ryy	.	.	.	.	.	.	.	8ryy	.	.	.	.
8FF/ 8F	16cc/LL	8a-\	.	.	.	.	.	.	.	8a-/	.	16cc\LL	.	.
.	16ddn/JJ	.	.	.	.	.	.	.	.	.	.	16ddn\JJ	.	.
*	*v	*v	*	*	*	*	*	*	*	*	*	*	*	*
!!LO:LB:g=original
=6	=6	=6	=6	=6	=6	=6	=6	=6	=6	=6	=6	=6	=6
8C/L	8g/L 8ee-	.	1r	.	.	1r	.	.	8g/	.	8ee-\	.	.
8F/	8f/ 8a- 8ddn	.	.	.	.	.	.	.	8f/	.	8ddn\	.	.
8G/	8e-/ 8g 8cc	.	.	.	.	.	.	.	8e-/	.	8cc\	.	.
!	!LO:SIC:v:s:t=dn	!	!	!	!	!	!	!	!	!	!	!	!
8GG/J	8d-/J 8f 8bn	.	.	.	.	.	.	.	8dn/	.	8bn\	.	.
8C'>\L	4e-/ 4cc	.	.	.	.	.	.	.	4c/	.	8.cc\	.	.
8G'>\	.	.	.	.	.	.	.	.	.	.	.	.	.
.	.	.	.	.	.	.	.	.	.	.	16cc\	.	.
8c'>\J	8.e-\L 8.ee-	.	.	.	.	.	.	.	8c/	.	8.ee-\	.	.
8E-\	.	.	.	.	.	.	.	.	8r	.	.	.	.
.	16cc\Jk	.	.	.	.	.	.	.	.	.	16cc\	.	.
=7	=7	=7	=7	=7	=7	=7	=7	=7	=7	=7	=7	=7	=7
!	!	!	!	!	!	!	!	!	!LO:TX:t=P:problem=pauzy dopisana ołówkiem	!	!	!	!
8c\L	(>8e-/L 8a-	.	1r	.	.	1r	.	.	2r	.	4a-/	.	.
8B-\	8d-/ 8g	.	.	.	.	.	.	.	.	.	.	.	.
8A-\	8c/ 8f	.	.	.	.	.	.	.	.	.	8.a-/	.	.
8G\J	8B-/J 8e-	.	.	.	.	.	.	.	.	.	.	.	.
.	.	.	.	.	.	.	.	.	.	.	16a-/	.	.
8F\L 8A-	8d-/L	.	.	.	.	.	.	.	4r	.	4a-/	.	.
8E-\ 8G	8c/	.	.	.	.	.	.	.	.	.	.	.	.
8D-\ 8F	8B-/	.	.	.	.	.	.	.	8r	.	8a-/	.	.
8C\J 8E-	8A-/J) 8a-	.	.	.	.	.	.	.	8a-/	.	8a-/	.	.
=8	=8	=8	=8	=8	=8	=8	=8	=8	=8	=8	=8	=8	=8
*	*^	*	*	*	*	*	*	*	*	*	*	*	*
8BB-^</L	4dd-/	8f\L 8a-	.	1r	.	.	1r	.	.	4f/	.	4dd-\	.	.
16C'</L	.	8d-\ 8a-	.	.	.	.	.	.	.	.	.	.	.	.
16D-'</JJ	.	.	.	.	.	.	.	.	.	.	.	.	.	.
8E-'</L	8cc/L	8c\ 8a-	.	.	.	.	.	.	.	8.a-/	.	8.cc\	.	.
8EE-'</J	8b-/J	8d-\J 8g	.	.	.	.	.	.	.	.	.	.	.	.
.	.	.	.	.	.	.	.	.	.	16g/	.	16b-\	.	.
!!mixed beam:problem
!LO:TX:t=P:problem=mixed beam	!	!	!	!	!	!	!	!	!	!	!	!	!	!
8AA-/L	8c/L 8a- 8cc	4ryy	.	.	.	.	.	.	.	4a-/	.	4cc\	.	.
8E-\	8c/ 8e-	.	.	.	.	.	.	.	.	.	.	.	.	.
8A-\J	8e-/J 8cc	8ryy	.	.	.	.	.	.	.	8a-/	.	8cc\	.	.
8AA-/	16.cc/LL	8e-\ 8a-	.	.	.	.	.	.	.	16.a-/	.	16.cc\	.	.
.	32ee-/JJk	.	.	.	.	.	.	.	.	32e-/	.	32ee-\	.	.
=9	=9	=9	=9	=9	=9	=9	=9	=9	=9	=9	=9	=9	=9	=9
8EE-'/L	(4ee-/	8e-\L 8g	.	1r	.	.	1r	.	.	4a-/	.	4ee-\	.	.
8BB-'/	.	8e-\ 8g	.	.	.	.	.	.	.	.	.	.	.	.
8E-'/	8b-/L)	8e-\ 8g	.	.	.	.	.	.	.	8g/	.	8b-\	.	.
8EE-'/J	8cc/J	8c\J 8g	.	.	.	.	.	.	.	8e-/	.	8cc\	.	.
!!mixed beam:problem
!LO:TX:t=P:problem=mixed beam	!	!	!	!	!	!	!	!	!	!	!	!	!	!
8FF'/L	4c/ 4f 4a-	4ryy	.	.	.	.	.	.	.	4c/	.	4a-/	.	.
8F'>\	.	.	.	.	.	.	.	.	.	.	.	.	.	.
8FF'/J	8ryy	8ryy	.	.	.	.	.	.	.	8f/	.	8a-/	.	.
8DD-/ 8D-	16.a-/LL	8f\	.	.	.	.	.	.	.	8f/	.	8a-/	.	.
.	32cc/JJk	.	.	.	.	.	.	.	.	.	.	.	.	.
*	*v	*v	*	*	*	*	*	*	*	*	*	*	*	*
!!LO:LB:g=original
=10	=10	=10	=10	=10	=10	=10	=10	=10	=10	=10	=10	=10	=10
8CC'</L	4c/ 4f 4a- 4cc	.	1r	.	.	1r	.	.	4c/	.	4cc\	.	.
8C'</	.	.	.	.	.	.	.	.	.	.	.	.	.
8CC'</	8.B-/L 8.en 8.g	.	.	.	.	.	.	.	8.B-/	.	8.g/	.	.
8C'</J	.	.	.	.	.	.	.	.	.	.	.	.	.
.	16c/Jk 16a-	.	.	.	.	.	.	.	16c/	.	16a-/	.	.
8FF/L	4.A-/ 4.f	.	.	.	.	.	.	.	4A-/	.	4f/	.	.
8C/	.	.	.	.	.	.	.	.	.	.	.	.	.
8F/J	.	.	.	.	.	.	.	.	8A-/	.	8f/	.	.
!	!	!LO:DY:rj	!	!	!	!	!	!	!	!	!	!	!
8CC'</ 8C	16.f/LL 16.a- 16.cc	ff	.	.	.	.	.	.	8r	.	8r	.	.
.	32f/JJk 32a- 32ff	.	.	.	.	.	.	.	.	.	.	.	.
=11	=11	=11	=11	=11	=11	=11	=11	=11	=11	=11	=11	=11	=11
*	*ped	*	*	*	*	*	*	*	*	*	*	*	*
8FFF/ 8FF	4.f/ 4.a- 4.ff	>	2r	.	.	2r	.	.	2r	.	2r	.	.
8C/L	.	.	.	.	.	.	.	.	.	.	.	.	.
8F/J	.	.	.	.	.	.	.	.	.	.	.	.	.
!	!LO:TX:a:t=(&colon;Echo&colon;):rj	!LO:DY:rj	!	!	!	!	!	!	!	!	!	!	!
8C/	16.f/LL 16.a- 16.cc	] pp	.	.	.	.	.	.	.	.	.	.	.
.	32f/JJk 32a- 32ff	.	.	.	.	.	.	.	.	.	.	.	.
8FF'</L	4.f/ 4.a- 4.ff	.	4r	.	.	4r	.	.	4r	.	4r	.	.
8C'</	.	.	.	.	.	.	.	.	.	.	.	.	.
8F'</	.	.	8r	.	.	8r	.	.	8r	.	8r	.	.
*	*Xped	*	*	*	*	*8ba	*	*	*	*	*	*	*
!	!	!LO:DY:rj	!	!	!LO:DY:a:color=blue:rj:rj	!	!	!LO:DY:a:color=blue:rj	!	!LO:DY:a:color=blue:rj	!	!	!LO:DY:a:color=blue:rj
8C'</J	16.c/LL 16.a- 16.cc	p	16.A-\LL	.	p	16.c\LL	.	p	16.a-/LL	p	16.cc\LL	.	p
.	32d-/JJk 32b- 32dd-	.	32B-\JJk	.	.	32d-\JJk	.	.	32b-/JJk	.	32dd-\JJk	.	.
=12	=12	=12	=12	=12	=12	=12	=12	=12	=12	=12	=12	=12	=12
8FF/L	(>8c'</L 8a- 8cc	.	8A-\	.	.	8c\	.	.	8a-/	.	8cc\	.	.
8C/	8B-'</ 8g 8b-	.	8G\	.	.	8B-\	.	.	8g/	.	8b-\	.	.
8FF/	8A-'</ 8f 8a-	.	8F\	.	.	8A-\	.	.	8f/	.	8a-\	.	.
8C/J	8B-'</J) 8g 8b-	.	8G\	.	.	8B-\	.	.	8g/	.	8b-\	.	.
8FF/L	8c/L 8a- 8cc	.	4A-\	.	.	4c\	.	.	4a-/	.	4cc\	.	.
8C/	8c/'<	.	.	.	.	.	.	.	.	.	.	.	.
8F/J	8f/J 8a- 8cc'<	ff	8ryy	.	.	8F/	.	.	8f/	.	8f/	.	.
!	!	!	!	!	!LO:DY:a:rj	!	!	!LO:DY:a	!	!	!	!	!
8CC/ 8C	16.c/LL 16.f 16.a-	.	16.F\LL	po	ff	16.A-\LL	po-	ff	8r	.	8r	.	.
.	32c/JJk 32a- 32cc	.	32A-\JJk	.	.	32c\JJk	.	.	.	.	.	.	.
=13	=13	=13	=13	=13	=13	=13	=13	=13	=13	=13	=13	=13	=13
*	*ped	*	*	*	*	*	*	*	*	*	*	*	*
8FFF/L 8FF	4.c/ 4.a- 4.cc	.	[>2A-\	.	.	[>2c\	-w	.	4r	.	4r	.	.
8C/	.	.	.	.	.	.	.	.	.	.	.	.	.
8F/	.	.	.	.	.	.	.	.	8r	.	8r	.	.
!	!	!LO:DY:rj	!	!	!	!	!	!	!	!LO:DY:a	!	!	!LO:DY:a
8C/J	16.c/LL 16.f 16.a-	pp	.	.	.	.	.	.	16.f/LL	pp	16.a-/LL	.	pp
.	32c/JJk 32a- 32cc	.	.	.	.	.	.	.	32a-/JJk	.	32cc/JJk	.	.
!	!	!	!	!	!	!LO:N:xstem:cue	!	!	!	!	!	!	!
8FF/L	4.c/ 4.a- 4.cc	.	4A-yy]	.	.	4c]	.	.	4.a-/	.	4.cc\	.	.
8C/	.	.	.	.	.	.	.	.	.	.	.	.	.
8F/	.	.	8ryy	.	.	8ryy	.	.	.	.	.	.	.
!	!	!	!	!	!LO:DY:a:color=blue:rj	!	!	!LO:DY:a:color=blue:rj	!	!LO:DY:a:color=blue:rj	!	!	!LO:DY:a:color=blue:rj
8C/J	16.c/LL 16.a-	.	16.F\	.	p	16.c\	.	p	16.f/	p	16.a-/	.	p
.	32d-/JJk 32b-	.	32F\	.	.	32d-\	.	.	32f/	.	32b-/	.	.
!!LO:LB:g=original
=14	=14	=14	=14	=14	=14	=14	=14	=14	=14	=14	=14	=14	=14
*M2/4	*M2/4	*	*M2/4	*	*	*M2/4	*	*	*M2/4	*	*M2/4	*	*
!!mixed beam:problem
!	!	!	!LO:TX:t=P:problem=mixed beam	!	!	!	!	!	!	!	!	!	!
8FF/L	(>8c'>/L 8a-	.	8F\L	.	.	8c/L	.	.	8f/L	.	8a-/L	.	.
8BB-/	8B-'>/ 8d- 8g-X	.	8BB-/J	.	.	8B-/J	.	.	8d-X/J	.	8g-X/J	.	.
8C/	8A-'>/ 8c 8f	.	8C/	.	.	8A-/	.	.	8c/	.	8f/	.	.
8CC/J 8C	8G'>/J) 8B- 8en	.	8C/	.	.	8G/	.	.	8B-/	.	8en/	.	.
=15	=15	=15	=15	=15	=15	=15	=15	=15	=15	=15	=15	=15	=15
*M4/4	*M4/4	*	*M4/4	*	*	*M4/4	*	*	*M4/4	*	*M4/4	*	*
*met(c)	*met(c)	*	*met(c)	*	*	*met(c)	*	*	*met(c)	*	*met(c)	*	*
*	*^	*	*	*	*	*	*	*	*	*	*	*	*
!	!	!	!	!	!	!LO:DY:a	!	!	!LO:DY:a	!	!LO:DY:a	!	!	!LO:DY:a
!	!	!	!	!	!	!LO:HP:a	!	!	!LO:DY:a	!	!LO:DY:a	!LO:TX:B:a:t=a:color=red:rj	!	!LO:DY:a
!	!	!	!LO:DY:rj	!	!	!	!	!	!LO:HP:a	!	!LO:HP:a	!	!	!LO:HP:a
8DD-/L 8D-	8.A-/L 8.c 8.f	2ryy	mf	8.D-\	.	mf <	8.F/	.	mf <	8.A-/	mf <	8.f/	.	mf <
*head:invis	*	*	*	*	*	*	*	*	*	*	*	*	*	*
8DD-/ 8D-	.	.	.	.	.	.	.	.	.	.	.	.	.	.
.	16A-/Jk 16d- 16f	.	<	16D-\	.	.	16A-/	.	.	16d-/	.	16f/	.	.
8DD-/ 8D-	8.c/L 8.g 8.a-	.	.	8.D-\	.	.	8.A-/	.	.	8.f/	.	8.a-/	.	.
8DD-/J 8D-	.	.	.	.	.	.	.	.	.	.	.	.	.	.
.	16e-/Jk 16g 16a-	.	[	16D-\	.	.	16A-/	.	.	16g/	.	16a-/	.	[
*Xhead	*	*	*	*	*	*	*	*	*	*	*	*	*	*
8DD-/ 8D-	4dd-/	8d-\L 8f	.	4.D-\	.	[	4.A-/	.	[	4.f/	[	4.dd-\	.	.
8D-\L 8A-	.	8d-\ 8f	.	.	.	.	.	.	.	.	.	.	.	.
*head:invis	*	*	*	*	*	*	*	*	*	*	*	*	*	*
8D-\ 8A-	8ryy	8d-\ 8f	.	.	.	.	.	.	.	.	.	.	.	.
8D-\J 8A-	16.dd-/LL	8f\J	.	8C\	.	.	8A-/	.	.	8f/	.	8dd-\	.	.
.	32ee-/JJk	.	.	.	.	.	.	.	.	.	.	.	.	.
*Xhead	*	*	*	*	*	*	*	*	*	*	*	*	*	*
=16	=16	=16	=16	=16	=16	=16	=16	=16	=16	=16	=16	=16	=16	=16
!	!	!	!	!	!	!	!	!	!	!	!	!LO:TX:a:B:t=A=:color=red:rj	!	!
8D-\L 8A-	(>8e-'</L 8dd-	2ryy	.	(>8D-'>\L	.	.	(<8A-'</	.	.	(<8e-'</	.	(>8dd-'>\	.	.
*head:invis	*	*	*	*	*	*	*	*	*	*	*	*	*	*
8D-\ 8A-	8e-'</ 8g 8cc	.	.	8D-'>\	.	.	8A-'</	.	.	8e-'</	.	8cc'>\	.	.
8D-\ 8A-	8e-'</ 8g 8b-	.	.	8D-'>\	.	.	8A-'</	.	.	8e-'</	.	8b-'>\	.	.
8D-\J 8A-	8e-'</J 8g 8cc	.	.	8D-'>\J	.	.	8A-'</	.	.	8e-'</	.	8cc'>\	.	.
*Xhead	*	*	*	*	*	*	*	*	*	*	*	*	*	*
*tremolo	*	*	*	*	*	*	*	*	*	*	*	*	*	*
8D-\L 8A-	(>4dd-^>/	8d-\L 8f	.	4D-\)	.	.	4A-/)	.	.	4d-/	.	4dd-\	.	.
8D-\ 8A-	.	8d-\ 8f	.	.	.	.	.	.	.	.	.	.	.	.
8D-\ 8A-	8a-/))	8f\J	.	8D-\	.	.	8A-/	.	.	8f/)	.	8a-\)	.	.
!	!	!	!LO:DY:rj	!	!	!LO:DY:a	!	!	!LO:DY:a	!	!	!	!	!
8D-\J 8A-	16.f/LL 16.a-	8ryy	pp	8D-\	.	pp	8A-/	zaj-	pp	8r	.	8r	.	.
.	32g/JJk 32b-	.	.	.	.	.	.	.	.	.	.	.	.	.
*Xtremolo	*	*	*	*	*	*	*	*	*	*	*	*	*	*
*	*v	*v	*	*	*	*	*	*	*	*	*	*	*	*
=17	=17	=17	=17	=17	=17	=17	=17	=17	=17	=17	=17	=17	=17
*M2/4	*M2/4	*	*M2/4	*	*	*M2/4	*	*	*M2/4	*	*M2/4	*	*
!	!LO:TX:t=P:problem=początek łuku bez zakończenia	!	!LO:TX:b:t=(x	!	!	!	!	!	!	!	!	!	!
8D-\L 8A-	8c'</L 8a- 8cc	.	4D-\	mu-	.	[<2A-/	-mu	.	4r	.	4r	.	.
8D-\ 8B-	8d-'</ 8g-X 8b-	.	.	.	.	.	.	.	.	.	.	.	.
8D-\ 8Bn	8dn'</ 8f 8a-	.	8D-\	-je,	.	.	.	.	8r	.	8r	.	.
8D-\J 8c	8e-'</J 8g-	.	8C/	zaj	.	.	.	.	8c/	.	8g/	.	.
!!LO:PB:g=original
=18	=18	=18	=18	=18	=18	=18	=18	=18	=18	=18	=18	=18	=18
*M4/4	*M4/4	*	*M4/4	*	*	*M4/4	*	*	*M4/4	*	*M4/4	*	*
*met(c)	*met(c)	*	*met(c)	*	*	*met(c)	*	*	*met(c)	*	*met(c)	*	*
*	*^	*	*	*	*	*	*	*	*	*	*	*	*
!	!	!	!	!	!	!LO:HP:a	!	!	!LO:HP:a	!	!LO:HP:a	!	!	!LO:HP:a
!	!	!	!	!	!	!LO:DY:a	!	!	!LO:DY:a	!	!LO:DY:a	!	!	!LO:DY:a
8DD-/ 8D-	8.d-/L 8.f	2ryy	<	8.D-\	.	<	8.A-/]	.	<	8.d-/	<	8.f/	.	<
8D-\L 8A-	.	.	.	.	.	.	.	.	.	.	.	.	.	.
.	16d-/Jk 16f	.	.	16D-\	.	.	16A-/	.	.	16d-/	.	16f/	.	.
*head:invis	*	*	*	*	*	*	*	*	*	*	*	*	*	*
8D-\ 8A-	8.c/L 8.g 8.a-	.	.	8.D-\	.	.	8.A-/	.	.	8.c/	.	8.a-/	.	.
8D-\J 8A-	.	.	.	.	.	.	.	.	.	.	.	.	.	.
.	16e-/Jk 16g 16a-	.	[ f	16D-\	.	.	16A-/	.	[	16c/	.	16a-/	.	.
*Xhead	*	*	*	*	*	*	*	*	*	*	*	*	*	*
!	!	!	!	!	!	!LO:DY:a:rj	!	!	!LO:DY:a:rj	!	!LO:DY:a:rj	!	!	!LO:DY:a:rj
*	*ped	*	*	*	*	*	*	*	*	*	*	*	*	*
8DD-/ 8D-	4.ff/	8f\L 8a-	.	4.D-\	.	[ f	4.A-/	.	f >	4.d-/	[ f	4.ff\	.	[ f
8D-\L 8A-	.	8f\ 8a-	.	.	.	.	.	.	.	.	.	.	.	.
*head:invis	*	*	*	*	*	*	*	*	*	*	*	*	*	*
8D-\ 8A-	.	8f\ 8a-	.	.	.	.	.	.	.	.	.	.	.	.
*	*Xped	*	*	*	*	*	*	*	*	*	*	*	*	*
8D-\J 8A-	16ee-/LL	8f\J	.	8D-\	.	.	8d-\	.	.	16e-/LL	.	16ee-\LL	.	.
.	16dd-/JJ	.	.	.	.	.	.	.	]	16f/JJ	.	16dd-\JJ	.	.
*Xhead	*	*	*	*	*	*	*	*	*	*	*	*	*	*
=19	=19	=19	=19	=19	=19	=19	=19	=19	=19	=19	=19	=19	=19	=19
*tremolo	*	*	*	*	*	*	*	*	*	*	*	*	*	*
*2\left	*	*	*	*	*	*	*	*	*	*	*	*	*	*
!	!	!	!	!	!	!LO:HP:a	!	!	!LO:HP:a	!	!LO:HP:a	!	!	!LO:HP:a
!	!	!	!	!	!	!LO:DY:a	!	!	!LO:DY:a	!	!LO:DY:a	!	!	!LO:DY:a
8D-\L 8A-	8g'</L 8dd-	2ryy	.	8A-\	.	>	8e-\	.	>	8g/	>	8dd-\	.	>
8D-\ 8A-	8g'</ 8cc	.	.	8A-\	.	.	8e-\	.	.	8g/	.	8cc\	.	.
8D-\ 8A-	8g'</ 8b-	.	.	8A-\	.	.	8e-\	.	.	8g/	.	8b-\	.	.
8D-\J 8A-	8g'</J 8cc	.	.	8G\	.	]	8e-\	.	]	8g/	]	8cc\	.	]
*2\right	*	*	*	*	*	*	*	*	*	*	*	*	*	*
8D-\L 8A-	4dd-/	8f\L	.	4D-\	.	.	4d-\	.	.	4f/	.	4dd-\	.	.
8D-\ 8A-	.	8f\	.	.	.	.	.	.	.	.	.	.	.	.
8D-\ 8A-	8a-/L	8f\J	.	16D-\	.	.	16d-\	.	.	16f/	.	16a-/	.	.
.	.	.	.	16r	.	.	16r	.	.	16r	.	16r	.	.
!	!	!	!	!	!	!LO:DY:a	!	!	!LO:DY:a	!	!LO:DY:a	!	!	!LO:DY:a
8D-\J 8A-	8A-/J 8a-	8ryy	.	8F\	.	mf	8F/	.	mf	8f/	mf	8f/	.	mf
*	*v	*v	*	*	*	*	*	*	*	*	*	*	*	*
=20	=20	=20	=20	=20	=20	=20	=20	=20	=20	=20	=20	=20	=20
!	!	!	!	!	!LO:HP:a	!	!	!LO:HP:a	!	!LO:HP:a	!	!	!LO:HP:a
!	!	!	!	!	!LO:DY:a	!	!	!LO:DY:a	!	!LO:DY:a	!	!	!LO:DY:a
8D-\L 8A-	8.Bn/L 8.f	.	8.F\	.	<	8.F/	.	<	8.f/	<	8.f/	.	<
8D-\ 8A-	.	.	.	.	.	.	.	.	.	.	.	.	.
*	*head:invis	*	*	*	*	*	*	*	*	*	*	*	*
.	16B/K 16f	.	16F\	.	.	16F/	.	.	16f/	.	16f/	.	.
8D-\ 8A-	8B/ 8f	.	8F\	.	.	8F/	.	.	8f/	.	8f/	.	.
8D-\J 8A-	8B/J 8f	.	8F\	.	.	8F/	.	.	8f/	.	8f/	.	.
*Xtremolo	*Xhead	*	*	*	*	*	*	*	*	*	*	*	*
!LO:N:vis=8.:n=2	!	!	!	!	!	!	!	!	!	!	!	!	!
8D-\L 8A-	8.c/L 8.f 8.a-	.	4A-\	.	[	4A-/	.	[	4a-/	[	4a-/	.	.
*head:invis	*	*	*	*	*	*	*	*	*	*	*	*	*
8D-\ 8A-	.	.	.	.	.	.	.	.	.	.	.	.	.
*	*head:invis	*	*	*	*	*	*	*	*	*	*	*	*
.	16c/K 16f 16a-	.	.	.	.	.	.	.	.	.	.	.	.
8D-\J 8A-	8c/J 8f 8a-	.	8A-\	.	.	8A-/	.	.	8a-/	.	8a-/	.	.
*Xhead	*Xhead	*	*	*	*	*	*	*	*	*	*	*	*
16AA-/LL 16A-	16f/LL 16a-	.	16A-\LL	.	.	16A-/LL	.	.	16a-/LL	.	16a-/LL	.	[
16GG/JJ 16G	16g/JJ 16b-	.	16B-\JJ	.	.	16B-/JJ	.	.	16b-/JJ	.	16b-/JJ	.	.
=21	=21	=21	=21	=21	=21	=21	=21	=21	=21	=21	=21	=21	=21
*	*^	*	*	*	*	*	*	*	*	*	*	*	*
8FF^</L 8F	8a-^</L 8cc	2ryy	.	4c\	.	.	4c\	.	.	4cc\	.	4cc\	.	.
8EE-^</ 8E-	8g^</ 8b- 8cc	.	<	.	.	.	.	.	.	.	.	.	.	.
8DDn^</ 8Dn	8f^</ 8a- 8cc	.	.	8c\	.	.	8c\	.	.	8cc\	.	8cc\	.	.
!	!	!	!	!	!	!LO:DY:a	!	!	!LO:DY:a	!	!LO:DY:a	!	!	!LO:DY:a
16.CC^</L 16.C	16e-^</L 16a- 16cc	.	.	16.r	.	ff	16.r	.	ff	16.r	ff	16.r	.	ff
.	32r	.	.	.	.	.	.	.	.	.	.	.	.	.
!	!	!	!LO:DY:rj	!	!	!	!	!	!	!	!	!	!	!
32BBBn/JJk 32BBn	32f/JJk 32a- 32ddn 32ff	.	ff	32Bn\	.	.	32dn\	.	.	32a-/	.	32ff\	.	.
!	!	!	!	!	!	!	!LO:HP:a	!	!	!	!LO:HP:a	!	!	!LO:HP:a
!	!	!	!	!	!	!	!	!	!	!	!	!	!	!LO:DY:a
*	*ped	*	*	*2\right	*	*	*2\right	*	*	*	*	*2\right	*	*
8BBB/ 8BB	[>4.a-/ [>4.dd [>4.ff	8f\L	.	[>2B\	.	>]	[>2d\	.	>	[>2a-/	>	[>2ff\	.	>]
8D'>\L 8F 8A-	.	8f\	.	.	.	.	.	.	.	.	.	.	.	.
8BB\ 8D 8F	.	8f\J	.	.	.	.	.	.	.	.	.	.	.	.
8D\J 8F 8A-	16.a-/LL] 16.dd] 16.ff]	8r	.	.	.	.	.	.	.	.	.	.	.	.
.	32A-/JJk 32dny 32f	.	.	.	.	.	.	.	]]	.	]]	.	.	.
!!LO:LB:g=original
=22	=22	=22	=22	=22	=22	=22	=22	=22	=22	=22	=22	=22	=22	=22
!	!LO:SIC:v:s:t=ddn	!	!	!	!	!	!	!	!	!	!LO:DY:a	!	!	!LO:DY:a:rj
8BBn'>\L 8D- 8F	4.d-/ 4.f	8A-\	.	2Bn\]	.	.	2d\]	.	.	2a-/]	p	2ff\]	.	p
8D-'>\ 8F 8A-	.	8ryy	.	.	.	.	.	.	.	.	.	.	.	.
8BB'>\ 8D- 8F	.	4ryy	.	.	.	.	.	.	.	.	.	.	.	.
!	!	!LO:TX:t=P:p[iano]=p.:problem	!LO:DY:rj	!	!	!	!	!	!	!	!	!	!	!
8D-'>\J 8F 8A-	16.f/LL 16.a-	.	p	.	.	.	.	.	.	.	.	.	.	.
.	32g/JJk 32b-	.	.	.	.	.	.	.	.	.	.	.	.	.
*rep	*	*	*	*	*	*	*	*	*	*	*	*	*	*
8BB'>\L 8D- 8F	(<8.f/L 8.a-	2ryy	.	8BBn/	.	.	8D-/	.	.	8A-/	.	8f/	.	.
8D-'>\ 8F 8A-	.	.	.	8r	.	.	8r	.	.	8r	.	8r	.	.
.	16en/Jk 16g	.	.	.	.	.	.	.	.	.	.	.	.	.
8BB'>\ 8D- 8F	8.f/L 8.a-	.	.	4r	.	.	4r	.	.	4r	.	4r	.	.
8D-'>\J 8F 8A-	.	.	.	.	.	.	.	.	.	.	.	.	.	.
.	16e/Jk 16g	.	.	.	.	.	.	.	.	.	.	.	.	.
*Xrep	*	*	*	*	*	*	*	*	*	*	*	*	*	*
*	*v	*v	*	*	*	*	*	*	*	*	*	*	*	*
=23	=23	=23	=23	=23	=23	=23	=23	=23	=23	=23	=23	=23	=23
*rep	*	*	*	*	*	*	*	*	*	*	*	*	*
8BBn'>\L 8D- 8F	8f'</) 8a-	.	4r	.	.	4r	.	.	4r	.	4r	.	.
8D-'>\ 8F 8A-	4f/ 4a-	.	.	.	.	.	.	.	.	.	.	.	.
8BB'>\ 8D- 8F	.	.	8r	.	.	8r	.	.	8r	.	8r	.	.
!	!	!	!	!	!LO:DY:a:rj	!	!	!LO:DY:a:rj	!	!LO:DY:a	!	!	!LO:DY:a
8D-'>\J 8F 8A-	(<16f/LL 16a-	pp	16AA-/LL	.	pp	16A-/LL	.	pp	16A-/LL	pp	16a-/LL	.	pp
.	16g/JJ 16b-	.	16BB-/JJ	.	.	16B-/JJ	.	.	16B-/JJ	.	16b-/JJ	.	.
*Xrep	*	*	*	*	*	*	*	*	*	*	*	*	*
!	!	!	!	!	!	!	!	!	!	!	!LO:TX:a:B:t==B:color=red	!	!
8C'>\L 8E- 8A-	8a-'</L) 8cc	.	2C/	.	.	2c\	.	.	2c/	.	2cc\	.	.
8D-'>\ 8F-X 8G	8gn'</ 8b-	.	.	.	.	.	.	.	.	.	.	.	.
8Dn'>\ 8Fn 8A-	8f'</ 8a-	.	.	.	.	.	.	.	.	.	.	.	.
!LO:TX:b:B:t==D:color=red	!	!	!	!	!	!	!	!	!	!	!	!	!
8En'\J 8B-	8d-X'</J 8g	.	.	.	.	.	.	.	.	.	.	.	.
=24	=24	=24	=24	=24	=24	=24	=24	=24	=24	=24	=24	=24	=24
*	*^	*	*	*	*	*	*	*	*	*	*	*	*
(<8FF'</L 8F	8.d-X/L 8.f	2ryy	mf <	8D-/	.	.	8F/	.	.	8A-/	.	8f/	.	.
!	!	!	!	!	!	!	!	!	!	!	!	!	!	!LO:DY:a
8FF-X'</ 8F-X	.	.	.	16r	.	.	16r	.	.	16r	.	16r	.	mf
!	!	!	!	!	!	!LO:DY:a:rj	!	!	!LO:DY:a:rj	!	!LO:DY:a:rj	!	!	!
.	16d-/K 16f	.	.	16D-/	.	mf	16A-/	.	mf	16d-/	mf	16f/	wdzie-	.
8EE-'</ 8E-	8.c/ 8.g-X 8.a-	.	.	8.D-/	.	.	8.A-/	.	.	8.e-/	.	8.a-/	-ra-	.
8EE--'</J) 8E--	.	.	.	.	.	.	.	.	.	.	.	.	.	.
.	16e-/Jk 16g- 16a-	.	.	16D-/	.	.	16A-/	.	.	16g/	.	16a-/	-jąc	.
!	!	!	!LO:DY:rj	!	!	!	!	!	!	!	!	!	!	!
8DD-/ 8D-	4.dd-/	8d-\L 8f	[ f	4.D-/	.	.	4.A-/	.	.	4.f/	.	4.dd-\	się	.
8D-\L 8A-	.	8d-\ 8f	.	.	.	.	.	.	.	.	.	.	.	.
8D-\ 8A-	.	8d-\ 8f	.	.	.	.	.	.	.	.	.	.	.	.
!	!	!	!	!	!	!	!	!	!	!	!	!LO:TX:a:B:t=A=B.	!	!
8D-\J 8A-	16dd-/LL	8f\J	.	8D-/	.	.	8A-/	.	.	8f/	.	8dd-\	.	.
.	16ee-/JJ	.	.	.	.	.	.	.	.	.	.	.	.	.
=25	=25	=25	=25	=25	=25	=25	=25	=25	=25	=25	=25	=25	=25	=25
!	!	!	!	!	!	!	!	!	!	!	!	!LO:TX:a:B:t=A=:color=red:rj	!	!
8D-\Lyy 8A-yy	(>8e-'</Lyy 8dd-yy	2ryyyy	.	(>8D-'>\Lyy	.	.	(<8A-'</yy	.	.	(<8e-'</yy	.	(>8dd-'>\yy	.	.
*head:invis	*	*	*	*	*	*	*	*	*	*	*	*	*	*
8D-\yy 8A-yy	8e-'</yy 8gyy 8ccyy	.	.	8D-'>\yy	.	.	8A-'</yy	.	.	8e-'</yy	.	8cc'>\yy	.	.
8D-\yy 8A-yy	8e-'</yy 8gyy 8b-yy	.	.	8D-'>\yy	.	.	8A-'</yy	.	.	8e-'</yy	.	8b-'>\yy	.	.
8D-\Jyy 8A-yy	8e-'</Jyy 8gyy 8ccyy	.	.	8D-'>\Jyy	.	.	8A-'</yy	.	.	8e-'</yy	.	8cc'>\yy	.	.
*Xhead	*	*	*	*	*	*	*	*	*	*	*	*	*	*
*tremolo	*	*	*	*	*	*	*	*	*	*	*	*	*	*
8D-\Lyy 8A-yy	(>4dd-^>/yy	8d-\Lyy 8fyy	.	4D-\)yy	.	.	4A-/)yy	.	.	4d-/yy	.	4dd-\yy	.	.
8D-\yy 8A-yy	.	8d-\yy 8fyy	.	.	.	.	.	.	.	.	.	.	.	.
8D-\yy 8A-yy	8a-/))yy	8f\Jyy	.	8D-\yy	.	.	8A-/yy	.	.	8f/)yy	.	8a-\)yy	.	.
!	!	!	!LO:DY:rj	!	!	!LO:DY:a	!	!	!LO:DY:a	!	!	!	!	!
8D-\Jyy 8A-yy	16.f/LLyy 16.a-yy	8ryyyy	pp y	8D-\yy	.	pp y	8A-/yy	zaj-	pp y	8ryy	.	8ryy	.	.
.	32g/JJkyy 32b-yy	.	.	.	.	.	.	.	.	.	.	.	.	.
*Xtremolo	*	*	*	*	*	*	*	*	*	*	*	*	*	*
*	*v	*v	*	*	*	*	*	*	*	*	*	*	*	*
=26	=26	=26	=26	=26	=26	=26	=26	=26	=26	=26	=26	=26	=26
*M2/4	*M2/4	*	*M2/4	*	*	*M2/4	*	*	*M2/4	*	*M2/4	*	*
!	!LO:TX:t=P:problem=początek łuku bez zakończenia	!	!LO:TX:b:t=(x	!	!	!	!	!	!	!	!	!	!
8D-\Lyy 8A-yy	8c'</Lyy 8a-yy 8ccyy	.	4D-\yy	mu-	.	[<2A-/yy	-mu	.	4ryy	.	4ryy	.	.
8D-\yy 8B-yy	8d-'</yy 8g-Xyy 8b-yy	.	.	.	.	.	.	.	.	.	.	.	.
8D-\yy 8Bnyy	8dn'</yy 8fyy 8a-yy	.	8D-\yy	-je,	.	.	.	.	8ryy	.	8ryy	.	.
8D-\Jyy 8cyy	8e-'</Jyy 8g-yy	.	8C/yy	zaj	.	.	.	.	8c/yy	.	8g/yy	.	.
=27	=27	=27	=27	=27	=27	=27	=27	=27	=27	=27	=27	=27	=27
*M4/4	*M4/4	*	*M4/4	*	*	*M4/4	*	*	*M4/4	*	*M4/4	*	*
*met(c)	*met(c)	*	*met(c)	*	*	*met(c)	*	*	*met(c)	*	*met(c)	*	*
*	*^	*	*	*	*	*	*	*	*	*	*	*	*
!	!	!	!	!	!	!LO:HP:a	!	!	!LO:HP:a	!	!LO:HP:a	!	!	!LO:HP:a
!	!	!	!	!	!	!LO:DY:a	!	!	!LO:DY:a	!	!LO:DY:a	!	!	!LO:DY:a
8DD-/yy 8D-yy	8.d-/Lyy 8.fyy	2ryy	<	8.D-\yy	.	<	8.A-/]yy	.	<	8.d-/yy	<	8.f/yy	.	<
8D-\Lyy 8A-yy	.	.	.	.	.	.	.	.	.	.	.	.	.	.
.	16d-/Jkyy 16fyy	.	.	16D-\yy	.	.	16A-/yy	.	.	16d-/yy	.	16f/yy	.	.
*head:invis	*	*	*	*	*	*	*	*	*	*	*	*	*	*
8D-\yy 8A-yy	8.c/Lyy 8.gyy 8.a-yy	.	.	8.D-\yy	.	.	8.A-/yy	.	.	8.c/yy	.	8.a-/yy	.	.
8D-\Jyy 8A-yy	.	.	.	.	.	.	.	.	.	.	.	.	.	.
.	16e-/Jkyy 16gyy 16a-yy	.	[ f y	16D-\yy	.	.	16A-/yy	.	[	16c/yy	.	16a-/yy	.	.
*Xhead	*	*	*	*	*	*	*	*	*	*	*	*	*	*
!	!	!	!	!	!	!LO:DY:a:rj	!	!	!LO:DY:a:rj	!	!LO:DY:a:rj	!	!	!LO:DY:a:rj
*	*ped	*	*	*	*	*	*	*	*	*	*	*	*	*
8DD-/yy 8D-yy	4.ff/yy	8f\Lyy 8a-yy	.	4.D-\yy	.	[ f y	4.A-/yy	.	f > y	4.d-/yy	[ f y	4.ff\yy	.	[ f y
8D-\Lyy 8A-yy	.	8f\yy 8a-yy	.	.	.	.	.	.	.	.	.	.	.	.
*head:invis	*	*	*	*	*	*	*	*	*	*	*	*	*	*
8D-\yy 8A-yy	.	8f\yy 8a-yy	.	.	.	.	.	.	.	.	.	.	.	.
*	*Xped	*	*	*	*	*	*	*	*	*	*	*	*	*
8D-\Jyy 8A-yy	16ee-/LLyy	8f\Jyy	.	8D-\yy	.	.	8d-\yy	.	.	16e-/LLyy	.	16ee-\LLyy	.	.
.	16dd-/JJyy	.	.	.	.	.	.	.	]	16f/JJyy	.	16dd-\JJyy	.	.
*Xhead	*	*	*	*	*	*	*	*	*	*	*	*	*	*
=28	=28	=28	=28	=28	=28	=28	=28	=28	=28	=28	=28	=28	=28	=28
*tremolo	*	*	*	*	*	*	*	*	*	*	*	*	*	*
*2\left	*	*	*	*	*	*	*	*	*	*	*	*	*	*
!	!	!	!	!	!	!LO:HP:a	!	!	!LO:HP:a	!	!LO:HP:a	!	!	!LO:HP:a
!	!	!	!	!	!	!LO:DY:a	!	!	!LO:DY:a	!	!LO:DY:a	!	!	!LO:DY:a
8D-\Lyy 8A-yy	8g'</Lyy 8dd-yy	2ryy	.	8A-\yy	.	>	8e-\yy	.	>	8g/yy	>	8dd-\yy	.	>
8D-\yy 8A-yy	8g'</yy 8ccyy	.	.	8A-\yy	.	.	8e-\yy	.	.	8g/yy	.	8cc\yy	.	.
8D-\yy 8A-yy	8g'</yy 8b-yy	.	.	8A-\yy	.	.	8e-\yy	.	.	8g/yy	.	8b-\yy	.	.
8D-\Jyy 8A-yy	8g'</Jyy 8ccyy	.	.	8G\yy	.	]	8e-\yy	.	]	8g/yy	]	8cc\yy	.	]
*2\right	*	*	*	*	*	*	*	*	*	*	*	*	*	*
8D-\Lyy 8A-yy	4dd-/yy	8f\Lyy	.	4D-\yy	.	.	4d-\yy	.	.	4f/yy	.	4dd-\yy	.	.
8D-\yy 8A-yy	.	8f\yy	.	.	.	.	.	.	.	.	.	.	.	.
8D-\yy 8A-yy	8a-/Lyy	8f\Jyy	.	16D-\yy	.	.	16d-\yy	.	.	16f/yy	.	16a-/yy	.	.
.	.	.	.	16ryy	.	.	16ryy	.	.	16ryy	.	16ryy	.	.
!	!	!	!	!	!	!LO:DY:a	!	!	!LO:DY:a	!	!LO:DY:a	!	!	!LO:DY:a
8D-\J 8A-yy	8A-/Jyy 8a-yy	8ryy	.	8F\yy	.	mf y	8F/yy	.	mf y	8f/yy	mf y	8f/yy	.	mf y
*	*v	*v	*	*	*	*	*	*	*	*	*	*	*	*
=29	=29	=29	=29	=29	=29	=29	=29	=29	=29	=29	=29	=29	=29
!	!	!	!	!	!LO:HP:a	!	!	!LO:HP:a	!	!LO:HP:a	!	!	!LO:HP:a
!	!	!	!	!	!LO:DY:a	!	!	!LO:DY:a	!	!LO:DY:a	!	!	!LO:DY:a
8D-\Lyy 8A-yy	8.Bn/Lyy 8.fyy	.	8.F\yy	.	<	8.F/yy	.	<	8.f/yy	<	8.f/yy	.	<
8D-\yy 8A-yy	.	.	.	.	.	.	.	.	.	.	.	.	.
*	*head:invis	*	*	*	*	*	*	*	*	*	*	*	*
.	16B/Kyy 16fyy	.	16F\yy	.	.	16F/yy	.	.	16f/yy	.	16f/yy	.	.
8D-\yy 8A-yy	8B/yy 8fyy	.	8F\yy	.	.	8F/yy	.	.	8f/yy	.	8f/yy	.	.
8D-\Jyy 8A-yy	8B/Jyy 8fyy	.	8F\yy	.	.	8F/yy	.	.	8f/yy	.	8f/yy	.	.
*Xtremolo	*Xhead	*	*	*	*	*	*	*	*	*	*	*	*
!LO:N:vis=8.:n=2	!	!	!	!	!	!	!	!	!	!	!	!	!
8D-\Lyy 8A-yy	8.c/Lyy 8.fyy 8.a-yy	.	4A-\yy	.	[	4A-/yy	.	[	4a-/yy	[	4a-/yy	.	.
*head:invis	*	*	*	*	*	*	*	*	*	*	*	*	*
8D-\yy 8A-yy	.	.	.	.	.	.	.	.	.	.	.	.	.
*	*head:invis	*	*	*	*	*	*	*	*	*	*	*	*
.	16c/Kyy 16fyy 16a-yy	.	.	.	.	.	.	.	.	.	.	.	.
8D-\Jyy 8A-yy	8c/Jyy 8fyy 8a-yy	.	8A-\yy	.	.	8A-/yy	.	.	8a-/yy	.	8a-/yy	.	.
*Xhead	*Xhead	*	*	*	*	*	*	*	*	*	*	*	*
16AA-/LLyy 16A-yy	16f/LLyy 16a-yy	.	16A-\LLyy	.	.	16A-/LLyy	.	.	16a-/LLyy	.	16a-/LLyy	.	[
16GG/JJyy 16Gyy	16g/JJyy 16b-yy	.	16B-\JJyy	.	.	16B-/JJyy	.	.	16b-/JJyy	.	16b-/JJyy	.	.
=30	=30	=30	=30	=30	=30	=30	=30	=30	=30	=30	=30	=30	=30
*	*^	*	*	*	*	*	*	*	*	*	*	*	*
8FF^</Lyy 8Fyy	8a-^</Lyy 8ccyy	2ryy	.	4c\yy	.	.	4c\yy	.	.	4cc\yy	.	4cc\yy	.	.
8EE-^</yy 8E-yy	8g^</yy 8b-yy 8ccyy	.	<	.	.	.	.	.	.	.	.	.	.	.
8DDn^</yy 8Dnyy	8f^</yy 8a-yy 8ccyy	.	.	8c\yy	.	.	8c\yy	.	.	8cc\yy	.	8cc\yy	.	.
!	!	!	!	!	!	!LO:DY:a	!	!	!LO:DY:a	!	!LO:DY:a	!	!	!LO:DY:a
16.CC^</Lyy 16.Cyy	16e-^</Lyy 16a-yy 16ccyy	.	.	16.ryy	.	ff y	16.ryy	.	ff y	16.ryy	ff y	16.ryy	.	ff y
.	32ryy	.	.	.	.	.	.	.	.	.	.	.	.	.
!	!	!	!LO:DY:rj	!	!	!	!	!	!	!	!	!	!	!
32BBBn/JJkyy 32BBnyy	32f/JJkyy 32a-yy 32ddnyy 32ffyy	.	ff y	32Bn\yy	.	.	32dn\yy	.	.	32a-/yy	.	32ff\yy	.	.
!	!	!	!	!	!	!	!LO:HP:a	!	!	!	!LO:HP:a	!	!	!LO:HP:a
!	!	!	!	!	!	!	!	!	!	!	!	!	!	!LO:DY:a
*	*ped	*	*	*2\right	*	*	*2\right	*	*	*	*	*2\right	*	*
8BBB/yy 8BByy	[>4.a-/yy [>4.ddyy [>4.ffyy	8f\Lyy	.	[>2B\yy	.	>]	[>2d\yy	.	>	[>2a-/yy	>	[>2ff\yy	.	>]
8D'>\Lyy 8Fyy 8A-yy	.	8f\yy	.	.	.	.	.	.	.	.	.	.	.	.
8BB\yy 8Dyy 8Fyy	.	8f\Jyy	.	.	.	.	.	.	.	.	.	.	.	.
8D\Jyy 8Fyy 8A-yy	16.a-/LL]yy 16.dd]yy 16.ff]yy	8ryy	.	.	.	.	.	.	.	.	.	.	.	.
.	32A-/JJkyy 32d-yy 32fyy	.	.	.	.	.	.	.	]]	.	]]	.	.	.
=31	=31	=31	=31	=31	=31	=31	=31	=31	=31	=31	=31	=31	=31	=31
!	!LO:SIC:v:s:t=ddn	!	!	!	!	!	!	!	!	!	!LO:DY:a	!	!	!LO:DY:a:rj
8BBn'>\Lyy 8D-yy 8Fyy	4.d-/yy 4.fyy	8A-\yy	.	2Bn\]yy	.	.	2d\]yy	.	.	2a-/]yy	p y	2ff\]yy	.	p y
8D-'>\yy 8Fyy 8A-yy	.	8ryy	.	.	.	.	.	.	.	.	.	.	.	.
8BB'>\yy 8D-yy 8Fyy	.	4ryy	.	.	.	.	.	.	.	.	.	.	.	.
!	!	!LO:TX:t=P:p[iano]=p.:problem	!LO:DY:rj	!	!	!	!	!	!	!	!	!	!	!
8D-'>\Jyy 8Fyy 8A-yy	16.f/LLyy 16.a-yy	.	p y	.	.	.	.	.	.	.	.	.	.	.
.	32g/JJkyy 32b-yy	.	.	.	.	.	.	.	.	.	.	.	.	.
*rep	*	*	*	*	*	*	*	*	*	*	*	*	*	*
8BB'>\Lyy 8D-yy 8Fyy	(<8.f/Lyy 8.a-yy	2ryy	.	8BBn/yy	.	.	8D-/yy	.	.	8A-/yy	.	8f/yy	.	.
8D-'>\yy 8Fyy 8A-yy	.	.	.	8ryy	.	.	8ryy	.	.	8ryy	.	8ryy	.	.
.	16en/Jkyy 16gyy	.	.	.	.	.	.	.	.	.	.	.	.	.
8BB'>\yy 8D-yy 8Fyy	8.f/Lyy 8.a-yy	.	.	4ryy	.	.	4ryy	.	.	4ryy	.	4ryy	.	.
8D-'>\Jyy 8F 8A-yy	.	.	.	.	.	.	.	.	.	.	.	.	.	.
.	16e/Jkyy 16gyy	.	.	.	.	.	.	.	.	.	.	.	.	.
*Xrep	*	*	*	*	*	*	*	*	*	*	*	*	*	*
*	*v	*v	*	*	*	*	*	*	*	*	*	*	*	*
=32	=32	=32	=32	=32	=32	=32	=32	=32	=32	=32	=32	=32	=32
*rep	*	*	*	*	*	*	*	*	*	*	*	*	*
8BBn'>\L 8D- 8Fyy	8f'</)yy 8a-yy	.	4ryy	.	.	4ryy	.	.	4ryy	.	4ryy	.	.
8D-'>\ 8F 8A-yy	4f/yy 4a-yy	.	.	.	.	.	.	.	.	.	.	.	.
8BB'>\ 8D- 8Fyy	.	.	8ryy	.	.	8ryy	.	.	8ryy	.	8ryy	.	.
!	!	!	!	!	!LO:DY:a:rj	!	!	!LO:DY:a:rj	!	!LO:DY:a	!	!	!LO:DY:a
8D-'>\J 8F 8A-yy	(<16f/LLyy 16a-yy	pp y	16AA-/LLyy	.	pp y	16A-/LLyy	.	pp y	16A-/LLyy	pp y	16a-/LLyy	.	pp y
.	16g/JJyy 16b-yy	.	16BB-/JJyy	.	.	16B-/JJyy	.	.	16B-/JJyy	.	16b-/JJyy	.	.
*Xrep	*	*	*	*	*	*	*	*	*	*	*	*	*
!	!	!	!	!	!	!	!	!	!	!	!LO:TX:a:B:t==B:color=red	!	!
8C'>\Lyy 8E-yy 8A-yy	8a-'</L)yy 8ccyy	.	2C/yy	.	.	2c\yy	.	.	2c/yy	.	2cc\yy	.	.
8D-'>\yy 8F-Xyy 8Gyy	8gn'</yy 8b-yy	.	.	.	.	.	.	.	.	.	.	.	.
8Dn'>\yy 8F-yy 8A-yy	8f'</yy 8a-yy	.	.	.	.	.	.	.	.	.	.	.	.
!LO:TX:b:B:t==D:color=red	!	!	!	!	!	!	!	!	!	!	!	!	!
8En'\Jyy 8B-yy	8d-X'</Jyy 8gyy	.	.	.	.	.	.	.	.	.	.	.	.
=33	=33	=33	=33	=33	=33	=33	=33	=33	=33	=33	=33	=33	=33
*^	*	*	*	*	*	*	*	*	*	*	*	*	*
!	!	!LO:TX:a:B:t=E=:color=red	!	!	!	!	!	!	!	!	!	!	!	!
8F/	4FF\	8A-/ 8f/	.	4F\	.	.	4F/	.	.	4A-/	.	4f/	.	.
4C/ 4A-	.	8r	.	.	.	.	.	.	.	.	.	.	.	.
.	4FF\	8r	.	4r	.	.	4r	.	.	4r	.	4r	.	.
4C/ 4A-	.	16.a-/LL	.	.	.	.	.	.	.	.	.	.	.	.
.	.	32g/JJk	.	.	.	.	.	.	.	.	.	.	.	.
.	4FF\	8f/L	.	2r	.	.	2r	.	.	2r	.	2r	.	.
4C/ 4A-	.	(<8cc/	.	.	.	.	.	.	.	.	.	.	.	.
.	4FF\	8a-/)	.	.	.	.	.	.	.	.	.	.	.	.
!LO:TX:t=P:problem=brak początku ligatur	!	!	!	!	!	!	!	!	!	!	!	!	!	!
[>8C/ [>8A-	.	8ff'</J	.	.	.	.	.	.	.	.	.	.	.	.
!!LO:PB:g=original
=34	=34	=34	=34	=34	=34	=34	=34	=34	=34	=34	=34	=34	=34	=34
8C/] 8A-]	4FF\	8.ee-\L	.	1r	.	.	1r	.	.	1r	.	1r	.	.
4C/ 4A-	.	.	.	.	.	.	.	.	.	.	.	.	.	.
.	.	16dd-\K	.	.	.	.	.	.	.	.	.	.	.	.
.	4FF\	8cc\J	.	.	.	.	.	.	.	.	.	.	.	.
!	!	!LO:TUP:a:problem=klamra łukowa	!	!	!	!	!	!	!	!	!	!	!	!
4C/ 4A-	.	24bn\LL	.	.	.	.	.	.	.	.	.	.	.	.
.	.	24cc\	.	.	.	.	.	.	.	.	.	.	.	.
.	.	24dd-\JJ	.	.	.	.	.	.	.	.	.	.	.	.
.	4FF\	8cc\L	.	.	.	.	.	.	.	.	.	.	.	.
*	*	*Xtuplet	*	*	*	*	*	*	*	*	*	*	*	*
!	!	!LO:TUP:a:problem=klamra łukowa	!	!	!	!	!	!	!	!	!	!	!	!
4D-/ 4B-	.	24an\L	.	.	.	.	.	.	.	.	.	.	.	.
.	.	24b\	.	.	.	.	.	.	.	.	.	.	.	.
.	.	24cc\JJ	.	.	.	.	.	.	.	.	.	.	.	.
.	4FF\	8b/L	.	.	.	.	.	.	.	.	.	.	.	.
!LO:TX:t=P:problem=cross-measure beam	!	!LO:TUP:b:problem=klamra łukowa	!	!	!	!	!	!	!	!	!	!	!	!
[<8Dn/ [>8Bn	.	24g/L	.	.	.	.	.	.	.	.	.	.	.	.
.	.	24a-X/	.	.	.	.	.	.	.	.	.	.	.	.
.	.	24b/JJ	.	.	.	.	.	.	.	.	.	.	.	.
=35	=35	=35	=35	=35	=35	=35	=35	=35	=35	=35	=35	=35	=35	=35
8D/L] 8B]	8FF\L	4.a-/	.	1r	.	.	1r	.	.	1r	.	1r	.	.
8E-/J 8c	8E-\J	.	.	.	.	.	.	.	.	.	.	.	.	.
!LO:TX:t=P:problem=mixed beam	!	!	!	!	!	!	!	!	!	!	!	!	!	!
8FF\L	4ryy	.	.	.	.	.	.	.	.	.	.	.	.	.
.	.	4qb-	.	.	.	.	.	.	.	.	.	.	.	.
8En\J 8B-y 8d-	.	16.a-/LL	.	.	.	.	.	.	.	.	.	.	.	.
.	.	32g/JJk	.	.	.	.	.	.	.	.	.	.	.	.
!LO:TX:t=P:problem=mixed beam	!	!	!	!	!	!	!	!	!	!	!	!	!	!
8FF\L	2ryy	8f/	<	.	.	.	.	.	.	.	.	.	.	.
8F\J 8A- 8c	.	(8a-/L 8cc	.	.	.	.	.	.	.	.	.	.	.	.
!LO:TX:t=P:problem=mixed beam	!	!	!	!	!	!	!	!	!	!	!	!	!	!
8FF\L	.	8f/J) 8a-	.	.	.	.	.	.	.	.	.	.	.	.
8C\J 8F 8A-	.	8a-\ 8ff 8aa-	[[	.	.	.	.	.	.	.	.	.	.	.
*v	*v	*	*	*	*	*	*	*	*	*	*	*	*	*
=36	=36	=36	=36	=36	=36	=36	=36	=36	=36	=36	=36	=36	=36
!!mixed beam:problem
!LO:TX:t=P:problem=mixed beam	!	!`	!	!	!	!	!	!	!	!	!	!	!
8FF/L	8.g/L 8.ee- 8.gg	sf	1r	.	.	1r	.	.	1r	.	1r	.	.
8E-\J 8B-\	.	.	.	.	.	.	.	.	.	.	.	.	.
.	16f/K 16dd- 16ff	.	.	.	.	.	.	.	.	.	.	.	.
8AA-\ 8E- 8c	8e-/J 8cc 8ee-	.	.	.	.	.	.	.	.	.	.	.	.
!	!LO:TUP:b:problem=klamra łukowa	!	!	!	!	!	!	!	!	!	!	!	!
(8BB-/	24cc/LL 24ee-	.	.	.	.	.	.	.	.	.	.	.	.
.	24b-/ 24dd-	.	.	.	.	.	.	.	.	.	.	.	.
.	24a-/JJ 24cc	.	.	.	.	.	.	.	.	.	.	.	.
8C/)	8a-'/ 8cc	.	.	.	.	.	.	.	.	.	.	.	.
!	!LO:TUP:b:problem=klamra łukowa	!	!	!	!	!	!	!	!	!	!	!	!
(8C/L	24e-/LL 24cc	.	.	.	.	.	.	.	.	.	.	.	.
.	24d-/ 24b-	.	.	.	.	.	.	.	.	.	.	.	.
.	24c/JJ 24a-	.	.	.	.	.	.	.	.	.	.	.	.
8CC/) 8C	8.c/L 8.a-	.	.	.	.	.	.	.	.	.	.	.	.
8C'/J	.	.	.	.	.	.	.	.	.	.	.	.	.
.	16B-/Jk 16en 16g	.	.	.	.	.	.	.	.	.	.	.	.
=37	=37	=37	=37	=37	=37	=37	=37	=37	=37	=37	=37	=37	=37
8FF/L	4.A-/ 4.f	.	1r	.	.	1r	.	.	1r	.	1r	.	.
16.C/L	.	.	.	.	.	.	.	.	.	.	.	.	.
32C/JJk	.	.	.	.	.	.	.	.	.	.	.	.	.
8F/L	.	.	.	.	.	.	.	.	.	.	.	.	.
16.BB-/L 16.D-	16.B-/LL 16.f	.	.	.	.	.	.	.	.	.	.	.	.
32BB-/JJk 32D-	32B-/JJk 32f	.	.	.	.	.	.	.	.	.	.	.	.
8FF'/L 8C	4.A-/ 4.f	.	.	.	.	.	.	.	.	.	.	.	.
16.C/L	.	.	.	.	.	.	.	.	.	.	.	.	.
32C/JJk	.	.	.	.	.	.	.	.	.	.	.	.	.
8F/L	.	.	.	.	.	.	.	.	.	.	.	.	.
16.BB-/L 16.D-	16.B-/LL 16.f	.	.	.	.	.	.	.	.	.	.	.	.
!LO:TX:a:B:t==F:color=red	!	!	!	!	!	!	!	!	!	!	!	!	!
32BB-/JJk 32D-	32B-/JJk 32f	.	.	.	.	.	.	.	.	.	.	.	.
=38	=38	=38	=38	=38	=38	=38	=38	=38	=38	=38	=38	=38	=38
!	!	!	!	!	!	!	!	!	!	!	!LO:TX:a:G:t=J:color=red	!	!
8FF/L 8C	8A-/ 8f	.	1r	.	.	1r	.	.	1r	.	2r	.	.
16.C/L	8r	.	.	.	.	.	.	.	.	.	.	.	.
32C/JJk	.	.	.	.	.	.	.	.	.	.	.	.	.
8FF/L	8A-/ 8f	.	.	.	.	.	.	.	.	.	.	.	.
16.C/L	8r	.	.	.	.	.	.	.	.	.	.	.	.
32C/JJk	.	.	.	.	.	.	.	.	.	.	.	.	.
8FF/ 8C	4A-/ 4f	.	.	.	.	.	.	.	.	.	4r	.	.
(8DD-T/L 8D-	.	.	.	.	.	.	.	.	.	.	.	.	.
8AA-/)	8.cc^</L	.	.	.	.	.	.	.	.	.	8.cc\	.	.
8C'/J	.	.	.	.	.	.	.	.	.	.	.	.	.
!	!LO:TX:b:B:t=D.C.\npag. 1.	!	!	!	!	!	!	!	!	!	!	!	!
.	16a-/Jk	.	.	.	.	.	.	.	.	.	16a-/	.	.
=39	=39	=39	=39	=39	=39	=39	=39	=39	=39	=39	=39	=39	=39
(8A-\Lyy 8cyy	(<8f/Lyy	.	1r	.	.	1r	.	.	2r	.	4f/	.	.
8G\yy 8B-yy	8e-/yy	.	.	.	.	.	.	.	.	.	.	.	.
8F\yy 8A-yy	8d-/yy	.	.	.	.	.	.	.	.	.	8.f/	.	.
8E-\Jyy 8Gyy	8c/Jyy	.	.	.	.	.	.	.	.	.	.	.	.
.	.	.	.	.	.	.	.	.	.	.	16f/	.	.
8D-\Lyy 8Fyy	8B-/Lyy	.	.	.	.	.	.	.	4r	.	4f/	.	.
8C\yy 8E-yy	8A-/yy	.	.	.	.	.	.	.	.	.	.	.	.
8BB-\yy 8D-yy	8G/yy	.	.	.	.	.	.	.	8.r	.	8.f/	.	.
8AA-\J)yy 8Cyy	8F/J)yy 8fyy	.	.	.	.	.	.	.	.	.	.	.	.
.	.	.	.	.	.	.	.	.	16f/	.	16f/	.	.
!!LO:LB:g=original
=40	=40	=40	=40	=40	=40	=40	=40	=40	=40	=40	=40	=40	=40
*^	*	*	*	*	*	*	*	*	*	*	*	*	*
4F/yy	8BB-\Lyy	4d-/yy 4gyy	.	1r	.	.	1r	.	.	4f/	.	4g/	.	.
.	8C\Jyy	.	.	.	.	.	.	.	.	.	.	.	.	.
8F/Lyy	8D-\Lyy	8.B-/Lyy 8.fyy	.	.	.	.	.	.	.	8.f/	.	8.f/	.	.
8F/Jyy	16C\Lyy	.	.	.	.	.	.	.	.	.	.	.	.	.
.	16BB-\JJyy	16d-/Jkyy 16gyy	.	.	.	.	.	.	.	16f/	.	16g/	.	.
4F/yy	8FF\Lyy	4c/yy 4fyy 4a-yy	.	.	.	.	.	.	.	4f/	.	4a-/	.	.
.	8C'>\yy	.	.	.	.	.	.	.	.	.	.	.	.	.
4ryy	8F'>\yy	8c/Lyy 8fyy 8a-yy	.	.	.	.	.	.	.	8f/	.	8f/	.	.
.	8E-'>\Jyy	8c/Jyy 8fyy 8a-yy	.	.	.	.	.	.	.	16a-/	.	8r	.	.
.	.	.	.	.	.	.	.	.	.	16a-/	.	.	.	.
*v	*v	*	*	*	*	*	*	*	*	*	*	*	*	*
=41	=41	=41	=41	=41	=41	=41	=41	=41	=41	=41	=41	=41	=41
*	*^	*	*	*	*	*	*	*	*	*	*	*	*
8D-'</Lyy	(>4B-/yy 4fyy 4a-yy 4b-yy	2ryy	.	1r	.	.	1r	.	.	4b-\	.	2r	.	.
8BB-'</yy	.	.	.	.	.	.	.	.	.	.	.	.	.	.
8E-'</yy	8B-/L)yy 8gyy 8b-yy	.	.	.	.	.	.	.	.	8b-\	.	.	.	.
8EE-'</Jyy	16e-/Lyy 16fyy 16a-yy	.	.	.	.	.	.	.	.	16a-\LL	.	.	.	.
.	16e-/JJyy 16gyy 16b-yy	.	.	.	.	.	.	.	.	16b-\JJ	.	.	.	.
*	*	*	*	*	*	*	*	*	*	*2\right	*	*	*	*
8AA-/Lyy	(<4e-/yy 4b-yy 4ccyy	4ryy	.	.	.	.	.	.	.	(>2cc\	.	4r	.	.
8E-/yy	.	.	.	.	.	.	.	.	.	.	.	.	.	.
8A-/Jyy	8e-'</)yy 8a-yy 8ccyy	8ryy	.	.	.	.	.	.	.	.	.	8r	.	.
8FF/yy 8Fyy	16cc/LLyy	8a-\yy	.	.	.	.	.	.	.	.	.	16cc\LL	Fon-	.
.	16ddn/JJyy	.	.	.	.	.	.	.	.	.	.	16ddn\JJ	.	.
*	*v	*v	*	*	*	*	*	*	*	*	*	*	*	*
=42	=42	=42	=42	=42	=42	=42	=42	=42	=42	=42	=42	=42	=42
8C/Lyy	8g/Lyy 8ee-yy	.	1r	.	.	1r	.	.	8g/L	.	8ee-\L	-tan-	.
8F/yy	8f/yy 8a-yy 8ddnyy	.	.	.	.	.	.	.	8f/J	.	8ddn\J	.	.
8G/yy	8e-/yy 8gyy 8ccyy	.	.	.	.	.	.	.	8e-/)	.	8cc\	na	.
!	!LO:SIC:v:s:t=dn	!	!	!	!	!	!	!	!	!	!	!	!
8GG/Jyy	8d-/Jyy 8fyy 8bnyy	.	.	.	.	.	.	.	8dn/	.	8bn\	ha	.
8C'>\Lyy	4e-/yy 4ccyy	.	.	.	.	.	.	.	4e-/	.	4cc\	.	.
8G'>\yy	.	.	.	.	.	.	.	.	.	.	.	.	.
8c'>\Jyy	8.e-\Lyy 8.ee-yy	.	.	.	.	.	.	.	8e-/	.	8.ee-\	.	.
8E-\yy	.	.	.	.	.	.	.	.	8r	.	.	.	.
.	16cc\Jkyy	.	.	.	.	.	.	.	.	.	16cc\	z mar-	.
=43	=43	=43	=43	=43	=43	=43	=43	=43	=43	=43	=43	=43	=43
8c\Lyy	(>8e-/Lyy 8a-yy	.	1r	.	.	1r	.	.	1r	.	4a-/	-mu-	.
8B-\yy	8d-/yy 8gyy	.	.	.	.	.	.	.	.	.	.	.	.
8A-\yy	8c/yy 8fyy	.	.	.	.	.	.	.	.	.	8.a-/	-ru	.
8G\Jyy	8B-/Jyy 8e-yy	.	.	.	.	.	.	.	.	.	.	.	.
!	!	!	!	!	!	!	!	!	!	!	!LO:TX:t=P:problem=nieczytelny tekst	!	!
.	.	.	.	.	.	.	.	.	.	.	16a-/	na-	.
8F\Lyy 8A-yy	8d-/Lyy	.	.	.	.	.	.	.	.	.	4.a-/	-<...>-	.
8E-\yy 8Gyy	8c/yy	.	.	.	.	.	.	.	.	.	.	.	.
8D-\yy 8Fyy	8B-/yy	.	.	.	.	.	.	.	.	.	.	.	.
8C\Jyy 8E-yy	8A-/J)yy 8a-yy	.	.	.	.	.	.	.	.	.	8a-/	-<..>	.
!!LO:PB:g=original
=44	=44	=44	=44	=44	=44	=44	=44	=44	=44	=44	=44	=44	=44
*	*^	*	*	*	*	*	*	*	*	*	*	*	*
8BB-^</Lyy	4dd-/yy	8f\Lyy 8a-yy	.	1r	.	.	1r	.	.	8.f/	.	8.dd-\	.	.
16C'</Lyy	.	8d-\yy 8a-yy	.	.	.	.	.	.	.	.	.	.	.	.
16D-'</JJyy	.	.	.	.	.	.	.	.	.	16f/	.	16dd-\	.	.
8E-'</Lyy	8cc/Lyy	8c\yy 8a-yy	.	.	.	.	.	.	.	8a-/	.	8cc\	.	.
8EE-'</Jyy	8b-/Jyy	8d-\Jyy 8gyy	.	.	.	.	.	.	.	8g/	.	8b-\	.	.
!!mixed beam:problem
!LO:TX:t=P:problem=mixed beam	!	!	!	!	!	!	!	!	!	!	!	!	!	!
8AA-/Lyy	8c/Lyy 8a-yy 8ccyy	4ryy	.	.	.	.	.	.	.	4a-/	.	4cc\	.	.
8E-\yy	8c/yy 8e-yy	.	.	.	.	.	.	.	.	.	.	.	.	.
8A-\Jyy	8e-/Jyy 8ccyy	8ryy	.	.	.	.	.	.	.	8a-/	.	8cc\	.	.
8AA-/yy	16.cc/LLyy	8e-\yy 8a-yy	.	.	.	.	.	.	.	8a-/	.	16cc\LL	.	.
.	.	.	.	.	.	.	.	.	.	.	.	16ee-\JJ	.	.
.	32ee-/JJkyy	.	.	.	.	.	.	.	.	.	.	.	.	.
=45	=45	=45	=45	=45	=45	=45	=45	=45	=45	=45	=45	=45	=45	=45
8EE-'</Lyy	(>4ee-/yy	8e-\Lyy 8gyy	.	1r	.	.	1r	.	.	4g/	.	(>8.ee-\L	.	.
8BB-'</yy	.	8e-\yy 8gyy	.	.	.	.	.	.	.	.	.	.	.	.
.	.	.	.	.	.	.	.	.	.	.	.	16b-\Jk)	.	.
8E-'</yy	8b-/Lyy	8e-\yy 8gyy	.	.	.	.	.	.	.	8g/	.	8b-\	.	.
8EE-'</Jyy	8cc/J)yy	8c\Jyy 8gyy	.	.	.	.	.	.	.	8e-/	.	8cc\	.	.
!!mixed beam:problem
!LO:TX:t=P:problem=mixed beam	!	!	!	!	!	!	!	!	!	!	!	!	!	!
8FF'</Lyy	4c/yy 4fyy 4a-yy	4ryy	.	.	.	.	.	.	.	4.f/	.	4.a-/	.	.
8F'>\yy	.	.	.	.	.	.	.	.	.	.	.	.	.	.
8FF'</Jyy	8ryy	8ryy	.	.	.	.	.	.	.	.	.	.	.	.
8DD-/yy 8D-yy	16.a-/LLyy	8f\yy	.	.	.	.	.	.	.	8f/	.	8a-/	.	.
.	32cc/JJkyy	.	.	.	.	.	.	.	.	.	.	.	.	.
*	*v	*v	*	*	*	*	*	*	*	*	*	*	*	*
=46	=46	=46	=46	=46	=46	=46	=46	=46	=46	=46	=46	=46	=46
8CC'</Lyy	4c/yy 4fyy 4a-yy 4ccyy	.	2r	.	.	2r	.	.	8.c/	.	8.cc\	.	.
8C'</yy	.	.	.	.	.	.	.	.	.	.	.	.	.
.	.	.	.	.	.	.	.	.	16c/	.	16cc\	.	.
8CC'</yy	8.B-/Lyy 8.enyy 8.gyy	.	.	.	.	.	.	.	8.B-/	.	8.g/	.	.
8C'</Jyy	.	.	.	.	.	.	.	.	.	.	.	.	.
.	16c/Jkyy 16a-yy	.	.	.	.	.	.	.	16c/	.	16a-/	.	.
8FF/Lyy	4.A-/yy 4.fyy	.	4r	.	.	4r	.	.	4A-/	.	4f/	.	.
8C/yy	.	.	.	.	.	.	.	.	.	.	.	.	.
8F/Jyy	.	.	8r	.	.	8r	.	.	8f/	.	8f/	.	.
!	!	!LO:DY:rj	!	!	!LO:DY:a	!	!	!LO:DY:a	!	!LO:DY:a	!	!	!LO:DY:a
8CC'</yy 8Cyy	16.f/LLyy 16.a-yy 16.ccyy	ff y	8c\	.	f	8f\	.	f	8a-/	f	16.cc\LL	.	f
.	32f/JJkyy 32a-yy 32ffyy	.	.	.	.	.	.	.	.	.	32ff\JJk	.	.
=47	=47	=47	=47	=47	=47	=47	=47	=47	=47	=47	=47	=47	=47
*	*	*	*^	*	*	*	*	*	*	*	*	*	*
!	!	!	!	!	!	!LO:HP:a	!	!	!LO:HP:a	!	!LO:HP:a	!	!	!LO:HP:a
*	*ped	*	*	*	*	*	*	*	*	*	*	*	*	*
8FFF/yy 8FFyy	4.f/yy 4.a-yy 4.ffyy	>	2.F\ 2.c	2ryy	.	>	2.f\	.	>	2.a-/	>	2.ff\	.	>
8C/Lyy	.	.	.	.	.	.	.	.	.	.	.	.	.	.
8F/Jyy	.	.	.	.	.	.	.	.	.	.	.	.	.	.
!	!LO:TX:a:t=(&colon;Echo&colon;):rj	!LO:DY:rj	!	!	!	!	!	!	!	!	!	!	!	!
8C/yy	16.f/LLyy 16.a-yy 16.ccyy	] pp y	.	.	.	.	.	.	.	.	.	.	.	.
.	32f/JJkyy 32a-yy 32ffyy	.	.	.	.	.	.	.	.	.	.	.	.	.
8FF'</Lyy	4.f/yy 4.a-yy 4.ffyy	.	.	4ryy	.	.	.	.	.	.	.	.	.	.
8C'</yy	.	.	.	.	.	.	.	.	.	.	.	.	.	.
8F'</yy	.	.	8F/	8F\	.	]	8c\	.	]	8a-/	]	8cc\	.	]
*	*Xped	*	*	*	*	*	*	*	*	*	*	*	*	*
!	!	!LO:DY:rj	!	!	!	!LO:DY:a:rj	!	!	!LO:DY:a:rj	!	!LO:DY:a:rj	!	!	!LO:DY:a:rj
8C'</Jyy	16.c/LLyy 16.a-yy 16.ccyy	p y	8F/	8F\	.	p	16.c\LL	.	p	16.a-/LL	p	16.cc\LL	.	p
.	32d-/JJkyy 32b-yy 32dd-yy	.	.	.	.	.	32d-\JJk	.	.	32b-/JJk	.	32dd-\JJk	.	.
*	*	*	*v	*v	*	*	*	*	*	*	*	*	*	*
!!LO:LB:g=original
=48	=48	=48	=48	=48	=48	=48	=48	=48	=48	=48	=48	=48	=48
8FF/Lyy	(>8c'</Lyy 8a-yy 8ccyy	.	(>8F'>\L	.	.	(>8c'>\L	.	.	(<8a-'</L	.	(>8cc'>\	.	.
8C/yy	8B-'</yy 8gyy 8b-yy	.	8F'>\	.	.	8c'>\	.	.	8g'</	.	8b-'>\	.	.
8FF/yy	8A-'</yy 8fyy 8a-yy	.	8F'>\	.	.	8c'>\	.	.	8f'</	.	8a-'>\	.	.
8C/Jyy	8B-'</J)yy 8gyy 8b-yy	.	8F'>\J)	.	.	8c'>\J)	.	.	8g'</J)	.	8b-'>\)	.	.
8FF/Lyy	8c/Lyy 8a-yy 8ccyy	.	4F\	.	.	4c\	.	.	4a-/	.	4cc\	.	.
8C/yy	8c/yy	.	.	.	.	.	.	.	.	.	.	.	.
8F/Jyy	8f/Jyy 8a-yy 8ccyy	ff y	8F\	.	.	8c\	.	.	8a-/	.	8cc\	.	.
!	!	!	!	!	!LO:DY:a:rj	!	!	!LO:DY:a:rj	!	!LO:DY:a:rj	!	!	!LO:DY:a:rj
8CC/yy 8Cyy	16.c/LLyy 16.fyy 16.a-yy	.	8F\	.	f	8c\	.	f	8f/	f	16.a-\LL	.	f
.	32c/JJkyy 32a-yy 32ccyy	.	.	.	.	.	.	.	.	.	32cc\JJk	.	.
=49	=49	=49	=49	=49	=49	=49	=49	=49	=49	=49	=49	=49	=49
*	*	*	*	*	*	*	*	*	*	*	*2\left	*	*
!	!	!	!	!	!LO:HP:a	!	!	!LO:HP:a	!	!LO:HP:a	!	!	!LO:HP:a
*	*ped	*	*	*	*	*	*	*	*	*	*	*	*
8FFF/Lyy 8FFyy	4.c/yy 4.a-yy 4.ccyy	.	2.F\	.	>	2.c\	.	>	2.a-/	>	2.cc\	.	>
8C/yy	.	.	.	.	.	.	.	.	.	.	.	.	.
8F/yy	.	.	.	.	.	.	.	.	.	.	.	.	.
!	!	!LO:DY:rj	!	!	!	!	!	!	!	!	!	!	!
8C/Jyy	16.c/LLyy 16.fyy 16.a-yy	pp y	.	.	.	.	.	.	.	.	.	.	.
.	32c/JJkyy 32a-yy 32ccyy	.	.	.	.	.	.	.	.	.	.	.	.
8FF/Lyy	4.c/yy 4.a-yy 4.ccyy	.	.	.	.	.	.	.	.	.	.	.	.
8C/yy	.	.	.	.	.	.	.	.	.	.	.	.	.
8F/yy	.	.	8F\	.	]	8c\	.	]	8f/	]	8a-/	.	]
!	!	!	!	!	!LO:DY:a:rj	!	!	!LO:DY:a:rj	!	!LO:DY:a:rj	!	!	!LO:DY:a:rj
8C/Jyy	16.c/LLyy 16.a-yy	.	8F\	.	p	16c\LL	.	p	8f/	p	16a-/LL	gdzie	p
.	.	.	.	.	.	16d-\JJ	.	.	.	.	16b-/JJ	.	.
.	32d-/JJkyy 32b-yy	.	.	.	.	.	.	.	.	.	.	.	.
=50	=50	=50	=50	=50	=50	=50	=50	=50	=50	=50	=50	=50	=50
*M2/4	*M2/4	*	*M2/4	*	*	*M2/4	*	*	*M2/4	*	*M2/4	*	*
!!mixed beam:problem
!	!	!	!LO:TX:t=P:problem=mixed beam	!	!	!	!	!	!	!	!	!	!
8FF/Lyy	(>8c'>/Lyy 8a-yy	.	8F\L	.	.	8c\L	.	.	8f/L	.	8a-/L	je-	.
8BB-/yy	8B-'>/yy 8d-yy 8g-Xyy	.	8BB-/J	.	.	8B-\J	.	.	8d-X/J	.	8g-X/J	.	.
8C/yy	8A-'>/yy 8cyy 8fyy	.	8C/	.	.	8A-/	.	.	8c/	.	8f/	-steś,	.
8CC/Jyy 8Cyy	8G'>/J)yy 8B-yy 8enyy	.	8C/	.	.	8G/	.	.	8B-/	.	8en/	po-	.
=51	=51	=51	=51	=51	=51	=51	=51	=51	=51	=51	=51	=51	=51
*M4/4	*M4/4	*	*M4/4	*	*	*M4/4	*	*	*M4/4	*	*M4/4	*	*
*met(c)	*met(c)	*	*met(c)	*	*	*met(c)	*	*	*met(c)	*	*met(c)	*	*
*	*^	*	*	*	*	*	*	*	*	*	*	*	*
!	!	!	!	!	!	!	!	!	!	!	!LO:HP:a	!	!	!
!	!	!	!LO:DY:rj	!	!	!LO:DY:a:	!	!	!LO:DY:a:rj	!	!LO:DY:a:rj	!	!	!LO:DY:a:rj
8DD-/Lyy 8D-yy	8.A-/Lyy 8.cyy 8.fyy	2ryy	mf y	8.D-\	.	mf	8.F/	.	mf	8.A-/	mf <	8.f/	-tę-	mf
*head:invis	*	*	*	*	*	*	*	*	*	*	*	*	*	*
8DD-/yy 8D-yy	.	.	.	.	.	.	.	.	.	.	.	.	.	.
.	16A-/Jkyy 16d-yy 16fyy	.	<	16D-\	.	.	16A-/	.	.	16d-/	.	16f/	-go!	.
8DD-/yy 8D-yy	8.c/Lyy 8.gyy 8.a-yy	.	.	8.D-\	.	.	8.A-/	.	.	8.e-/	.	8.a-/	chwa-	.
8DD-/Jyy 8D-yy	.	.	.	.	.	.	.	.	.	.	.	.	.	.
.	16e-/Jkyy 16gyy 16a-yy	.	[	16D-\	.	.	16A-/	.	.	16g/	[	16a-/	-ło!	.
*Xhead	*	*	*	*	*	*	*	*	*	*	*	*	*	*
8DD-/yy 8D-yy	4dd-/yy	8d-\Lyy 8fyy	.	4.D-^>\	.	.	4.A-^</	.	.	4.f^</	.	4.dd-^>\	wy!	.
8D-\Lyy 8A-yy	.	8d-\yy 8fyy	.	.	.	.	.	.	.	.	.	.	.	.
*head:invis	*	*	*	*	*	*	*	*	*	*	*	*	*	*
8D-\yy 8A-yy	8ryy	8d-\yy 8fyy	.	.	.	.	.	.	.	.	.	.	.	.
8D-\Jyy 8A-yy	16.dd-/LLyy	8f\Jyy	.	8D-\	.	.	8A-/	.	.	8f/	.	8dd-\	wy	.
.	32ee-/JJkyy	.	.	.	.	.	.	.	.	.	.	.	.	.
*Xhead	*	*	*	*	*	*	*	*	*	*	*	*	*	*
!!LO:PB:g=original
=52	=52	=52	=52	=52	=52	=52	=52	=52	=52	=52	=52	=52	=52	=52
8D-\Lyy 8A-yy	(>8e-'</Lyy 8dd-yy	2ryy	.	(>8D-'>\	.	.	(<8A-'</	.	.	(<8e-'</	.	(>8dd-'>\	.	.
*head:invis	*	*	*	*	*	*	*	*	*	*	*	*	*	*
8D-\yy 8A-yy	8e-'</yy 8gyy 8ccyy	.	.	8D-'>\	.	.	8A-'</	.	.	8f'</	.	8cc'>\	.	.
8D-\yy 8A-yy	8e-'</yy 8gyy 8b-yy	.	.	8D-'>\	.	.	8A-'</	.	.	8e-'</	.	8b-'>\	.	.
8D-\Jyy 8A-yy	8e-'</Jyy 8gyy 8ccyy	.	.	8D-'>\)	.	.	8A-'</)	.	.	8e-'</)	.	8cc'>\)	.	.
*Xhead	*	*	*	*	*	*	*	*	*	*	*	*	*	*
*tremolo	*	*	*	*	*	*	*	*	*	*	*	*	*	*
8D-\Lyy 8A-yy	(>4dd-^>/yy	8d-\Lyy 8fyy	.	4D-\	.	.	4A-/	.	.	4d-/	.	4dd-\	.	.
8D-\yy 8A-yy	.	8d-\yy 8fyy	.	.	.	.	.	.	.	.	.	.	.	.
8D-\yy 8A-yy	8a-/))yy	8f\Jyy	.	8D-\	.	.	8A-/	.	.	8f/	.	8a-/	.	.
!	!	!	!LO:DY:rj	!LO:TX:t=P:pp[ianissimo]=pp.:problem	!	!LO:DY:a	!LO:TX:t=P:pp[ianissimo]=pp.:problem	!	!LO:DY:a	!	!	!	!	!
8D-\Jyy 8A-yy	16.f/LLyy 16.a-yy	8ryy	pp y	8D-\	na	pp	8A-/	.	pp	8r	.	8r	.	.
.	32g/JJkyy 32b-yy	.	.	.	.	.	.	.	.	.	.	.	.	.
*Xtremolo	*	*	*	*	*	*	*	*	*	*	*	*	*	*
*	*v	*v	*	*	*	*	*	*	*	*	*	*	*	*
=53	=53	=53	=53	=53	=53	=53	=53	=53	=53	=53	=53	=53	=53
*M2/4	*M2/4	*	*M2/4	*	*	*M2/4	*	*	*M2/4	*	*M2/4	*	*
!	!LO:TX:t=P:problem=początek łuku bez zakończenia	!	!	!	!	!	!	!	!	!	!	!	!
8D-\Lyy 8A-yy	8c'</Lyy 8a-yy 8ccyy	.	4D-\	wie-	.	[<2A-/	wie	.	4r	.	4r	.	.
8D-\yy 8B-yy	8d-'</yy 8g-Xyy 8b-yy	.	.	.	.	.	.	.	.	.	.	.	.
8D-\yy 8Bnyy	8dn'</yy 8fyy 8a-yy	.	16D-\	-ki	.	.	.	.	8r	.	8r	.	.
.	.	.	16r	.	.	.	.	.	.	.	.	.	.
8D-\Jyy 8cyy	8e-'</Jyy 8g-yy	.	8D-\	gdzie	.	.	.	.	8c/	.	8g/	Gdzie	.
=54	=54	=54	=54	=54	=54	=54	=54	=54	=54	=54	=54	=54	=54
*M4/4	*M4/4	*	*M4/4	*	*	*M4/4	*	*	*M4/4	*	*M4/4	*	*
*met(c)	*met(c)	*	*met(c)	*	*	*met(c)	*	*	*met(c)	*	*met(c)	*	*
*	*^	*	*	*	*	*	*	*	*	*	*	*	*
!	!	!	!	!	!	!LO:HP:a	!	!	!LO:HP:a	!	!LO:HP:a	!	!	!LO:HP:a
8DD-/yy 8D-yy	8.d-/Lyy 8.fyy	2ryy	<	8.D-\	.	<	8.A-/]	.	<	8.d-/	<	8.f/	.	<
8D-\Lyy 8A-yy	.	.	.	.	.	.	.	.	.	.	.	.	.	.
.	16d-/Jkyy 16fyy	.	.	16D-\	.	.	16A-/	.	.	16d-/	.	16f/	.	.
*head:invis	*	*	*	*	*	*	*	*	*	*	*	*	*	*
8D-\yy 8A-yy	8.c/Lyy 8.gyy 8.a-yy	.	.	8.D-\	.	.	8.A-/	.	.	8.c/	.	8.a-/	.	.
8D-\Jyy 8A-yy	.	.	.	.	.	.	.	.	.	.	.	.	.	.
.	16e-/Jkyy 16gyy 16a-yy	.	[ f y	16D-\	.	.	16A-/	.	.	16c/	.	16a-/	.	.
!	!	!	!	!	!	!	!	!	!LO:DY:a	!	!LO:DY:a	!	!LO:TX:t=P:f[orte]=f.:problem	!LO:DY:a
*Xhead	*ped	*	*	*	*	*	*	*	*	*	*	*	*	*
8DD-/yyy 8D-yyy	4.ff/yy	8f\Lyyy 8a-yy	.	4.D-\	.	[ f	4.A-/	.	[ f	4.d-/	[ f	4.ff\	.	[ f
8D-\Lyyy 8A-yy	.	8f\yy 8a-yy	.	.	.	.	.	.	.	.	.	.	.	.
*head:invis	*	*	*	*	*	*	*	*	*	*	*	*	*	*
8D-\yy 8A-yy	.	8f\yy 8a-yy	.	.	.	.	.	.	.	.	.	.	.	.
*	*Xped	*	*	*	*	*	*	*	*	*	*	*	*	*
!	!	!	!	!	!	!	!LO:N:vis=4.	!	!	!	!	!	!	!
8D-\Jyy 8A-yy	16ee-/LLyy	8f\Jyy	.	8D-\	.	.	8d-\	.	.	16e-/LL	.	16ee-\LL	.	.
.	16dd-/JJyy	.	.	.	.	.	.	.	.	16f/JJ	.	16dd-\JJ	.	.
*Xhead	*	*	*	*	*	*	*	*	*	*	*	*	*	*
=55	=55	=55	=55	=55	=55	=55	=55	=55	=55	=55	=55	=55	=55	=55
*2\left	*	*	*	*	*	*	*	*	*	*	*	*	*	*
*tremolo	*	*	*	*	*	*	*	*	*	*	*	*	*	*
!	!	!	!	!	!	!LO:DY:a	!	!	!LO:HP:a	!	!LO:HP:a	!	!	!LO:HP:a
8D-\Lyy 8A-yy	8g'</Lyy 8dd-yy	2ryy	.	8A-\	.	>	8e-\	.	>	8g/	>	8dd-\	.	>
8D-\yy 8A-yy	8g'</yy 8ccyy	.	.	8A-\	.	.	8e-\	.	.	8g/	.	8cc\	.	.
8D-\yy 8A-yy	8g'</yy 8b-yy	.	.	8A-\	.	.	8e-\	.	.	8g/	.	8b-\	.	.
8D-\Jyy 8A-yy	8g'</Jyy 8ccyy	.	.	8A-\	.	]	8e-\	.	]	8g/	]	8cc\	.	.
*2\right	*	*	*	*	*	*	*	*	*	*	*	*	*	*
8D-\Lyy 8A-yy	4dd-/yy	8f\Lyy	.	4D-\	.	.	4d-\	.	.	4f/	.	4dd-\	.	]
8D-\yy 8A-yy	.	8f\yy	.	.	.	.	.	.	.	.	.	.	.	.
8D-\yy 8A-yy	8a-/Lyy	8f\Jyy	.	16D-\	.	.	16d-\	.	.	16f/	.	16a-/	.	.
.	.	.	.	16r	.	.	16r	.	.	16r	.	16r	.	.
8D-\Jyy 8A-yy	8A-/Jyy 8a-yy	8ryy	.	8F\	.	.	8F/	.	.	8f/	.	8f/	.	.
*Xtremolo	*	*	*	*	*	*	*	*	*	*	*	*	*	*
*	*v	*v	*	*	*	*	*	*	*	*	*	*	*	*
!!LO:LB:g=original
=56	=56	=56	=56	=56	=56	=56	=56	=56	=56	=56	=56	=56	=56
*tremolo	*	*	*	*	*	*	*	*	*	*	*	*	*
!	!	!	!	!	!	!	!	!LO:HP:a	!	!	!	!	!
!	!	!	!	!	!	!	!	!LO:DY:a:rj	!	!LO:DY:a	!LO:TX:a:B:t=U:color=red	!	!LO:DY:a
8D-\Lyy 8A-yy	8.Bn/Lyy 8.fyy	.	8.F\	.	.	8.F/	.	mf <	8.f/	mf	8.f/	.	mf
8D-\yy 8A-yy	.	.	.	.	.	.	.	.	.	.	.	.	.
*	*head:invis	*	*	*	*	*	*	*	*	*	*	*	*
!	!	!	!	!	!	!	!	!	!	!LO:HP:a	!	!	!LO:HP:a
.	16B/Kyy 16fyy	.	16F\	.	.	16F/	.	.	16f/	<	16f/	.	<
8D-\yy 8A-yy	8B/yy 8fyy	.	8F\	.	.	8F/	.	.	8f/	.	8f/	.	.
8D-\Jyy 8A-yy	8B/Jyy 8fyy	.	8F\	.	.	8F/	.	.	8f/	.	8f/	.	.
*Xtremolo	*Xhead	*	*	*	*	*	*	*	*	*	*	*	*
8D-\Lyy 8A-yy	8.c/Lyy 8.fyy 8.a-yy	.	4A-\	.	.	4A-/	.	.	4a-/	.	4a-/	.	.
*head:invis	*head:invis	*	*	*	*	*	*	*	*	*	*	*	*
8D-\yy 8A-yy	.	.	.	.	.	.	.	.	.	.	.	.	.
.	16c/Kyy 16fyy 16a-yy	.	.	.	.	.	.	.	.	.	.	.	.
8D-\Jyy 8A-yy	8c/Jyy 8fyy 8a-yy	.	8A-\	.	.	8A-/	.	[	8a-/	[	8a-/	.	[
*Xhead	*Xhead	*	*	*	*	*	*	*	*	*	*	*	*
16AA-/LLyy 16A-yy	16f/LLyy 16a-yy	.	16A-\	.	.	16A-/	.	.	16a-/	.	16a-/	.	.
16GG/JJyy 16Gyy	16g/JJyy 16b-yy	.	16B-\	.	.	16B-/	.	.	16b-/	.	16b-/	.	.
=57	=57	=57	=57	=57	=57	=57	=57	=57	=57	=57	=57	=57	=57
*	*^	*	*	*	*	*	*	*	*	*	*	*	*
8FF^</Lyy 8Fyy	8a-^</Lyy 8ccyy	2ryy	.	8c\	.	.	8c\	.	.	8cc\	.	8cc\	.	.
8EE-^</yy 8E-yy	8g^</yy 8b-yy 8ccyy	.	<	8c\	.	.	8c\	.	.	8cc\	.	8cc\	.	.
8DDn^</yy 8Dnyy	8f^</yy 8a-yy 8ccyy	.	.	8c\	.	.	8c\	.	.	8cc\	.	8cc\	.	.
16.CC^</Lyy 16.Cyy	16e-^</Lyy 16a-yy 16ccyy	.	.	16c\	.	.	16c\	.	.	16cc\	.	16cc\	.	.
!	!	!	!	!	!	!LO:DY:a	!	!	!LO:DY:a	!	!LO:DY:a	!	!	!LO:DY:a
.	32ryy	.	.	32r	.	ff	32r	.	ff	32r	ff	32r	.	ff
!	!	!	!LO:DY:rj	!	!	!	!	!	!	!	!	!	!	!
*	*ped	*	*	*	*	*	*	*	*	*	*	*	*	*
32BBBn/JJkyy 32BBnyy	32f/JJkyy 32a-yy 32ddnyy 32ffyy	.	ff y	32Bn\	.	.	32dn\	.	.	32a-/	.	32ff\	.	.
*	*	*	*	*	*	*	*	*	*	*	*	*2\right	*	*
!	!	!	!	!	!	!LO:HP:a	!	!	!LO:HP:a	!	!LO:HP:a	!	!	!LO:HP:a
8BBB/yy 8BByy	[>4.a-/yy [>4.ddyy [>4.ffyy	8f\Lyy	.	2B\	.	>]	2d\	.	>]	2a-/	>]	(>2ff\	.	>]
8D'>\Lyy 8Fyy 8A-yy	.	8f\yy	.	.	.	.	.	.	.	.	.	.	.	.
8BB\yy 8Dyy 8Fyy	.	8f\Jyy	.	.	.	.	.	.	.	.	.	.	.	.
8D\Jyy 8Fyy 8A-yy	16.a-/LL]yy 16.dd]yy 16.ff]yy	8ryy	.	.	.	.	.	.	.	.	.	.	.	.
.	32A-/JJkyy 32dnyy 32fyy	.	.	.	.	.	.	.	.	.	.	.	.	.
=58	=58	=58	=58	=58	=58	=58	=58	=58	=58	=58	=58	=58	=58	=58
!LO:SIC:v:s:t=Dn	!LO:SIC:v:s:t=dn	!	!	!	!	!	!LO:SIC:v:s:t=dn	!	!	!	!	!	!	!
8BBn'>\Lyy 8D-yy 8Fyy	4.d-/yy 4.fyy	8A-\yy	.	8BBn/	.	.	4D-/	.	.	4f/	.	4f/)	.	.
8D-'>\yy 8Fyy 8A-yy	.	8ryy	.	8r	.	.	.	.	.	.	.	.	.	.
!	!	!	!	!	!	!	!	!	!	!	!	!	!	!LO:DY:a
8BB'>\yy 8D-yy 8Fyy	.	4ryy	.	4r	.	.	4r	.	.	8r	.	8r	.	.
!	!LO:TX:t=P:p[iano]=p.:problem	!	!LO:DY:rj	!	!	!	!	!	!	!	!LO:DY:a:rj	!	!	!LO:DY:rj
8D-'>\Jyy 8Fyy 8A-yy	16.f/LLyy 16.a-yy	.	p y	.	.	.	.	.	.	16.f/	p	16.a-/	wy-	p
.	32g/JJkyy 32b-yy	.	.	.	.	.	.	.	.	32g/	.	32b-/	-ście	.
*rep	*	*	*	*	*	*	*	*	*	*	*	*	*	*
8BB'>\Lyy 8D-yy 8Fyy	(<8.f/Lyy 8.a-yy	2ryy	.	2r	.	.	2r	.	.	8.f/L	.	8.a-/L	prze-	.
8D-'>\yy 8F 8A-	.	.	.	.	.	.	.	.	.	.	.	.	.	.
.	16en/Jkyy 16gyy	.	.	.	.	.	.	.	.	16en/Jk	.	16g/Jk	.	.
8BB'>\yy 8D-yy 8Fyy	8.f/Lyy 8.a-yy	.	.	.	.	.	.	.	.	8f/	.	8a-/	-szły	.
8D-'>\Jyy 8Fyy 8A-yy	.	.	.	.	.	.	.	.	.	16r	.	16r	.	.
.	16e/Jkyy 16gyy	.	.	.	.	.	.	.	.	16e/	.	16g/	a	.
*Xrep	*	*	*	*	*	*	*	*	*	*	*	*	*	*
*	*v	*v	*	*	*	*	*	*	*	*	*	*	*	*
=59	=59	=59	=59	=59	=59	=59	=59	=59	=59	=59	=59	=59	=59
*rep	*	*	*	*	*	*	*	*	*	*	*	*	*
!	!	!	!	!	!	!	!	!LO:DY:a	!	!	!	!	!
8BBn'>\Lyy 8Dyy- 8Fyy	8f'</)yy 8a-yy	.	4r	.	.	4r	.	pp	8f/	.	8a-/	źró-	.
8D-'>\yy 8Fyy 8A-yy	4f/yy 4a-yy	.	.	.	.	.	.	.	8f/	.	8a-/	-dło	.
!	!	!	!	!	!	!	!	!LO:DY:a	!	!	!	!	!
8BB'>\yy 8D-yy 8Fyy	.	.	8r	.	.	8r	.	.	8r	.	8r	.	.
!	!	!	!	!	!LO:DY:a:rj	!	!	!	!	!LO:DY:a	!	!	!LO:DY:a
8D-'>\Jyy 8Fyy 8A-yy	(<16f/LLyy 16a-yy	pp y	16AA-/LL	.	pp	16A-/LL	.	.	16A-/LL	pp	16a-/LL	zo-	pp
.	16g/JJyy 16b-yy	.	16BB-/JJ	.	.	16B-/JJ	.	.	16B-/JJ	.	16b-/JJ	.	.
*Xrep	*	*	*	*	*	*	*	*	*	*	*	*	*
8C'>\Lyy 8E-yy 8A-yy	8a-'</L)yy 8ccyy	.	2C/	.	.	2c\	.	.	2c/	.	2cc\	sta	.
8D-'>\yy 8F-Xyy 8Gyy	8gn'</yy 8b-yy	.	.	.	.	.	.	.	.	.	.	.	.
8Dn'>\yy 8Fnyy 8A-yy	8f'</yy 8a-yy	.	.	.	.	.	.	.	.	.	.	.	.
!LO:TX:b:B:t==D:color=red	!	!	!	!	!	!	!	!	!	!	!	!	!
8En'>\Jyy 8B-yy	8d-X'</Jyy 8gyy	.	.	.	.	.	.	.	.	.	.	.	.
!!LO:PB:g=original
=60	=60	=60	=60	=60	=60	=60	=60	=60	=60	=60	=60	=60	=60
*^	*	*	*	*	*	*	*	*	*	*	*	*	*
!	!	!LO:TX:a:t=4 Takty	!	!	!	!	!	!	!	!	!	!	!	!
!	!	!LO:TX:a:B:t=E = F:color=red	!	!	!	!	!	!	!	!	!	!	!	!
8F/yy	4FF\yy	8A-/yy 8fyy	.	4F\	.	.	4F/	.	.	4f/	.	4f/	.	.
4C/yy 4A-yy	.	8ryy	.	.	.	.	.	.	.	.	.	.	.	.
.	4FF\yy	8ryy	.	4r	.	.	4r	.	.	4r	.	4r	.	.
4C/yy 4A-yy	.	16.a-/LLyy	.	.	.	.	.	.	.	.	.	.	.	.
.	.	32g/JJkyy	.	.	.	.	.	.	.	.	.	.	.	.
.	4FF\yy	8f/Lyy	.	2r	.	.	2r	.	.	2r	.	2r	.	.
4C/yy 4A-yy	.	(<8cc/yy	.	.	.	.	.	.	.	.	.	.	.	.
.	4FF\yy	8a-/)yy	.	.	.	.	.	.	.	.	.	.	.	.
!LO:TX:t=P:problem=brak początku ligatur	!	!	!	!	!	!	!	!	!	!	!	!	!	!
[>8C/yy [>8A-yy	.	8ff'</Jyy	.	.	.	.	.	.	.	.	.	.	.	.
=61	=61	=61	=61	=61	=61	=61	=61	=61	=61	=61	=61	=61	=61	=61
!	!	!	!	!	!	!	!	!	!	!	!	!LO:TX:a:t=Pausen	!	!
8C/]yy 8A-]yy	4FF\yy	8.ee-\Lyy	.	1ryy	.	.	1ryy	.	.	1ryy	.	1ryy	.	.
4C/yy 4A-yy	.	.	.	.	.	.	.	.	.	.	.	.	.	.
.	.	16dd-\Kyy	.	.	.	.	.	.	.	.	.	.	.	.
.	4FF\yy	8cc\Jyy	.	.	.	.	.	.	.	.	.	.	.	.
*	*	*tuplet	*	*	*	*	*	*	*	*	*	*	*	*
!	!	!LO:TUP:a:problem=klamra łukowa	!	!	!	!	!	!	!	!	!	!	!	!
4C/yy 4A-yy	.	24bn\LLyy	.	.	.	.	.	.	.	.	.	.	.	.
.	.	24cc\yy	.	.	.	.	.	.	.	.	.	.	.	.
.	.	24dd-\JJyy	.	.	.	.	.	.	.	.	.	.	.	.
*	*	*Xtuplet	*	*	*	*	*	*	*	*	*	*	*	*
.	4FF\yy	8cc\Lyy	.	.	.	.	.	.	.	.	.	.	.	.
!	!	!LO:TUP:b:problem=klamra łukowa	!	!	!	!	!	!	!	!	!	!	!	!
4D-/yy 4B-yy	.	24an\Lyy	.	.	.	.	.	.	.	.	.	.	.	.
.	.	24b\yy	.	.	.	.	.	.	.	.	.	.	.	.
.	.	24cc\JJyy	.	.	.	.	.	.	.	.	.	.	.	.
.	4FF\yy	8b/Lyy	.	.	.	.	.	.	.	.	.	.	.	.
!LO:TX:t=P:problem=cross-measure beam	!	!LO:TUP:b:problem=klamra łukowa	!	!	!	!	!	!	!	!	!	!	!	!
[<8Dn/yy [>8Bnyy	.	24g/Lyy	.	.	.	.	.	.	.	.	.	.	.	.
.	.	24a-X/yy	.	.	.	.	.	.	.	.	.	.	.	.
.	.	24b/JJyy	.	.	.	.	.	.	.	.	.	.	.	.
*v	*v	*	*	*	*	*	*	*	*	*	*	*	*	*
*	*	*	*	*	*	*X8ba	*	*	*	*	*	*	*
=62	=62	=62	=62	=62	=62	=62	=62	=62	=62	=62	=62	=62	=62
*^	*	*	*	*	*	*	*	*	*	*	*	*	*
8D/L]yy 8B]yy	8FF\Lyy	4.a-/yy	.	1ryy	.	.	1ryy	.	.	1ryy	.	1ryy	.	.
8E-/Jyy 8cyy	8E-\Jyy	.	.	.	.	.	.	.	.	.	.	.	.	.
!!mixed beam:problem
!LO:TX:t=P:problem=mixed beam	!	!	!	!	!	!	!	!	!	!	!	!	!	!
8FF/Lyy	4ryy	.	.	.	.	.	.	.	.	.	.	.	.	.
.	.	4qb-yy	.	.	.	.	.	.	.	.	.	.	.	.
8En\Jyy 8B-y\yy 8d-\yy	.	16.a-/LLyy	.	.	.	.	.	.	.	.	.	.	.	.
.	.	32g/JJkyy	.	.	.	.	.	.	.	.	.	.	.	.
!!mixed beam:problem
!LO:TX:t=P:problem=mixed beam	!	!	!	!	!	!	!	!	!	!	!	!	!	!
8FF/Lyy	2ryy	8f/yy	<	.	.	.	.	.	.	.	.	.	.	.
8F\Jyy 8A-\yy 8c\yy	.	(<8a-/Lyy 8ccyy	.	.	.	.	.	.	.	.	.	.	.	.
!!mixed beam:problem
!LO:TX:t=P:problem=mixed beam	!	!	!	!	!	!	!	!	!	!	!	!	!	!
8FF/Lyy	.	8f/J)yy 8a-yy	.	.	.	.	.	.	.	.	.	.	.	.
8C\Jyy 8F\yy 8A-\yy	.	8a-\yy 8ffyy 8aa-yy	[[	.	.	.	.	.	.	.	.	.	.	.
*v	*v	*	*	*	*	*	*	*	*	*	*	*	*	*
=63	=63	=63	=63	=63	=63	=63	=63	=63	=63	=63	=63	=63	=63
!!mixed beam:problem
!LO:TX:t=P:problem=mixed beam	!	!	!	!	!	!	!	!	!	!	!	!	!
8FF/Lyy	8.g/Lyy 8.ee-yy 8.ggyy	sf y	1ryy	.	.	1ryy	.	.	1ryy	.	1ryy	.	.
8E-\Jyy 8B-\yy	.	.	.	.	.	.	.	.	.	.	.	.	.
.	16f/Kyy 16dd-yy 16ffyy	.	.	.	.	.	.	.	.	.	.	.	.
8AA-\yy 8E-yy 8cyy	8e-/Jyy 8ccyy 8ee-yy	.	.	.	.	.	.	.	.	.	.	.	.
!	!LO:TUP:b:problem=klamra łukowa	!	!	!	!	!	!	!	!	!	!	!	!
(<8BB-/yy	24cc/LLyy 24ee-yy	.	.	.	.	.	.	.	.	.	.	.	.
.	24b-/yy 24dd-yy	.	.	.	.	.	.	.	.	.	.	.	.
.	24a-/JJyy 24ccyy	.	.	.	.	.	.	.	.	.	.	.	.
8C/)yy	8a-'</yy 8ccyy	.	.	.	.	.	.	.	.	.	.	.	.
!	!LO:TUP:b:problem=klamra łukowa	!	!	!	!	!	!	!	!	!	!	!	!
(<8C/Lyy	24e-/LLyy 24ccyy	.	.	.	.	.	.	.	.	.	.	.	.
.	24d-/yy 24b-yy	.	.	.	.	.	.	.	.	.	.	.	.
.	24c/JJyy 24a-yy	.	.	.	.	.	.	.	.	.	.	.	.
8CC/)yy 8Cyy	8.c/Lyy 8.a-yy	.	.	.	.	.	.	.	.	.	.	.	.
8C'</Jyy	.	.	.	.	.	.	.	.	.	.	.	.	.
.	16B-/Jkyy 16enyy 16gyy	.	.	.	.	.	.	.	.	.	.	.	.
=64	=64	=64	=64	=64	=64	=64	=64	=64	=64	=64	=64	=64	=64
!	!LO:TX:b:t=perdendosi.	!	!	!	!	!	!	!	!	!	!	!	!
8FF/L 8C	8A-/ 8f	.	1r	.	.	1r	.	.	1r	.	1r	.	.
16.CC/L 16.C	8r	.	.	.	.	.	.	.	.	.	.	.	.
32C/JJk	.	.	.	.	.	.	.	.	.	.	.	.	.
*rep	*rep	*	*	*	*	*	*	*	*	*	*	*	*
8FF/L 8C	8A-/ 8f	.	.	.	.	.	.	.	.	.	.	.	.
16.CC/L 16.C	8r	.	.	.	.	.	.	.	.	.	.	.	.
32C/JJk	.	.	.	.	.	.	.	.	.	.	.	.	.
*Xrep	*Xrep	*	*	*	*	*	*	*	*	*	*	*	*
*rep	*rep	*	*	*	*	*	*	*	*	*	*	*	*
8FF/L 8C	8A-/ 8f	.	.	.	.	.	.	.	.	.	.	.	.
16.CC/L 16.C	8r	.	.	.	.	.	.	.	.	.	.	.	.
32C/JJk	.	.	.	.	.	.	.	.	.	.	.	.	.
*Xrep	*Xrep	*	*	*	*	*	*	*	*	*	*	*	*
*	*rep	*	*	*	*	*	*	*	*	*	*	*	*
8FF/L 8C	8A-/ 8f	.	.	.	.	.	.	.	.	.	.	.	.
8CC/J 8C	8r	.	.	.	.	.	.	.	.	.	.	.	.
*	*Xrep	*	*	*	*	*	*	*	*	*	*	*	*
=65	=65	=65	=65	=65	=65	=65	=65	=65	=65	=65	=65	=65	=65
*coll8ba	*	*	*	*	*	*	*	*	*	*	*	*	*
!LO:TX:t=P:problem=ottava mark	!	!	!	!	!	!	!	!	!	!	!	!	!
1FFF 1FF	1F<;> 1A-< 1c 1f	.	1r	.	.	1r	.	.	1r	.	1r	.	.
*Xcoll8ba	*	*	*	*	*	*	*	*	*	*	*	*	*
==	==	==	==	==	==	==	==	==	==	==	==	==	==
*-	*-	*-	*-	*-	*-	*-	*-	*-	*-	*-	*-	*-	*-
!!!system-decoration: [(g1)][(g2)]
!!!RDF**kern: > = above
!!!RDF**kern: < = below
!!!RDF**kern: @ = marked note, color=blue
!!!RDF**dynam: < = "cres.", fontstyle="italic"
!!!ENC: Marcin Jachim
!!!END: 2021-08-18
!!!EED: Jędrzej Mróz
!!!ESR: 2021-10-01
